!!!!SEGMENT: pl-wumfc--n68232--001-030_moniuszko-stanislaw--paria-wyciag-fortepianowy-akt-iii-kawatina.krn
!!!cenid: 18xx:4160
!!!COM: Moniuszko, Stanisław
!!!COM-rismID: pe30008351
!!!CDT: 1819/05/05-1872/06/04
!!!CNT: Polish
!!!GTL: Paria – wyciąg fortepianowy
!!!OTL: Akt III. Kawatina
!!!OMV: 030
!!!PDT:
!!!AGN:
!!!YEC: Copyright 2022 Narodowy Instytut Fryderyka Chopina (https://polishscores.org)
!!!YEM: License CC-BY-4.0 (https://creativecommons.org/licenses/by/4.0)
!!!SMS-siglum: PL-Wumfc
!!!SMS-shelfmark: N68232
!!!SMS-variant:
!!!SMS-altvar:
!!!SMS-shelfwork: 001-030 G
!!!NIFC-rismSourceID: 1001171381
!!!NIFC-rismChildID: 1001171381
!!!NIFC-islandoraID: pl-wumfc:7210
!!!URL-pdf-islandora: https://repozytorium.nifc.pl/islandora/object/pl-wumfc%3A7210/datastream/PDF/view
!!!URL-scan: https://polish.musicsources.pl/pl/lokalizacje/galeria/druki-muzyczne/12634/1 @EN{Scan on Polish Music Sources Website} @PL{Skany w portalu Dziedzictwo Muzyki Polskiej w otwartym dostępie}
!!!IIIF:
!!!ONB-nifc: UWAGA: str. 116-118. Uwaga: proszę w pliku umieszczać obsadę, która występuje tylko w danej części.
!!!AIN: 1 bass 2 piano 1 tenor 3 vox
!!!key:
**kern	**dynam	**kern	**dynam	**kern	**dynam	**kern	**text	**text	**dynam	**kern	**text	**text	**kern	**text	**text	**kern	**text	**text
*part7	*	*part6	*	*part5	*	*part4	*	*	*	*part3	*	*	*part2	*	*	*part1	*	*
*staff7	*	*staff6	*	*staff5	*	*staff4	*	*	*	*staff3	*	*	*staff2	*	*	*staff1	*	*
*I"[Fortepian.]	*	*I"[Fortepian.]	*	*I"CHÓR OGÓLNY. CORO GENERALE.	*	*I"CHÓR OGÓLNY. CORO GENERALE.	*	*	*	*I"Akeb. Akeb.	*	*	*I"Neala. Neala. (druga wersja)	*	*	*I"Neala. Neala.	*	*
*I'[pf]	*	*I'[pf]	*	*I'[Coro B]	*	*I'[Coro T]	*	*	*	*I'A. A.	*	*	*I'N. (2) N.	*	*	*I'N. N.	*	*
*ICklav	*	*ICklav	*	*ICvox	*	*ICvox	*	*	*	*ICvox	*	*	*ICvox	*	*	*ICvox	*	*
*Ipiano	*	*Ipiano	*	*Ibass	*	*Itenor	*	*	*	*Ivox	*	*	*Ivox	*	*	*Ivox	*	*
*clefF4	*	*clefG2	*	*clefF4	*	*clefG2	*	*	*	*clefF4	*	*	*clefG2	*	*	*clefG2	*	*
*k[]	*	*k[]	*	*k[]	*	*k[]	*	*	*	*k[]	*	*	*k[]	*	*	*k[]	*	*
*G:	*	*G:	*	*G:	*	*G:	*	*	*	*G:	*	*	*G:	*	*	*G:	*	*
*M4/4	*	*M4/4	*	*M4/4	*	*M4/4	*	*	*	*M4/4	*	*	*M4/4	*	*	*M4/4	*	*
*met(c)	*	*met(c)	*	*met(c)	*	*met(c)	*	*	*	*met(c)	*	*	*met(c)	*	*	*met(c)	*	*
=1	=1	=1	=1	=1	=1	=1	=1	=1	=1	=1	=1	=1	=1	=1	=1	=1	=1	=1
!	!	!	!	!LO:TX:a:t=B.	!	!LO:TX:a:t=T.	!	!	!	!	!	!	!	!	!	!	!	!
1AAA; 1AA	.	1c; 1e 1a	.	1r;	.	1r;	.	.	.	1ryy	.	.	1ryy	.	.	1r;	.	.
=2	=2	=2	=2	=2	=2	=2	=2	=2	=2	=2	=2	=2	=2	=2	=2	=2	=2	=2
!	!	!LO:TX:a:B:t=Lento assai.	!	!	!	!	!	!	!	!	!	!	!	!	!	!LO:TX:a:B:t=Lento assai.	!	!
1r	.	1r	.	1r	.	1r	.	.	.	1ryy	.	.	1ryy	.	.	4r	.	.
.	.	.	.	.	.	.	.	.	.	.	.	.	.	.	.	4a/	To	So-
.	.	.	.	.	.	.	.	.	.	.	.	.	.	.	.	4.cc\	nie	-gno
.	.	.	.	.	.	.	.	.	.	.	.	.	.	.	.	8b\	był	non
=3	=3	=3	=3	=3	=3	=3	=3	=3	=3	=3	=3	=3	=3	=3	=3	=3	=3	=3
4r	.	1r	.	1r	.	1r	.	.	.	1ryy	.	.	1ryy	.	.	2dd\	sen!	fu!
!LO:TX:a:t=Fag. e V IIi.	!LO:DY:a	!	!	!	!	!	!	!	!	!	!	!	!	!	!	!	!	!
(2F\	p	.	.	.	.	.	.	.	.	.	.	.	.	.	.	.	.	.
.	.	.	.	.	.	.	.	.	.	.	.	.	.	.	.	2r	.	.
4E\	.	.	.	.	.	.	.	.	.	.	.	.	.	.	.	.	.	.
=4	=4	=4	=4	=4	=4	=4	=4	=4	=4	=4	=4	=4	=4	=4	=4	=4	=4	=4
4D/	.	1r	.	1r	.	1r	.	.	.	1ryy	.	.	1ryy	.	.	1r	.	.
4AA/	.	.	.	.	.	.	.	.	.	.	.	.	.	.	.	.	.	.
4.FF/	.	.	.	.	.	.	.	.	.	.	.	.	.	.	.	.	.	.
8EE/)	.	.	.	.	.	.	.	.	.	.	.	.	.	.	.	.	.	.
=5	=5	=5	=5	=5	=5	=5	=5	=5	=5	=5	=5	=5	=5	=5	=5	=5	=5	=5
2DD/ 2D	.	1d [>1f [1b-X	fp	4r	.	4r	.	.	.	1ryy	.	.	1ryy	.	.	1r	.	.
.	.	.	.	8.r	.	8.r	.	.	.	.	.	.	.	.	.	.	.	.
.	.	.	.	16F\	.	16f/	Co	Che	.	.	.	.	.	.	.	.	.	.
[2D\	.	.	.	8B-X\	.	8b-X/	czy-	fa-	.	.	.	.	.	.	.	.	.	.
.	.	.	.	8F\	.	8d/	-nisz?	-i?	.	.	.	.	.	.	.	.	.	.
.	.	.	.	4r	.	4r	.	.	.	.	.	.	.	.	.	.	.	.
=6	=6	=6	=6	=6	=6	=6	=6	=6	=6	=6	=6	=6	=6	=6	=6	=6	=6	=6
1D_	.	[1B-X 1f_> 1b-_	.	1r	.	1r	.	.	.	1ryy	.	.	1ryy	.	.	2ff\	Wszy-	Tut-
.	.	.	.	.	.	.	.	.	.	.	.	.	.	.	.	4.dd\	-stko	-to
.	.	.	.	.	.	.	.	.	.	.	.	.	.	.	.	8cc\	wy-	quag
!!LO:LB:g=original	!	!	!	!	!	!	!	!	!	!	!	!	!	!	!	!	!	!
=7	=7	=7	=7	=7	=7	=7	=7	=7	=7	=7	=7	=7	=7	=7	=7	=7	=7	=7
*	*	*^	*	*	*	*	*	*	*	*	*	*	*	*	*	*	*	*
1D]	.	(2.b-/_	1B-] 1f]	.	1ryy	.	1ryy	.	.	.	1ryy	.	.	1ryy	.	.	4cc\	-dar-	giu
.	.	.	.	.	.	.	.	.	.	.	.	.	.	.	.	.	4b-X\	-li	ci
.	.	.	.	.	.	.	.	.	.	.	.	.	.	.	.	.	4.dd\	nam	ven-
.	.	8b-/L]	.	.	.	.	.	.	.	.	.	.	.	.	.	.	.	.	.
.	.	8a/J)	.	.	.	.	.	.	.	.	.	.	.	.	.	.	8a/	na	-ne
=8	=8	=8	=8	=8	=8	=8	=8	=8	=8	=8	=8	=8	=8	=8	=8	=8	=8	=8	=8
*^	*	*	*	*	*	*	*	*	*	*	*	*	*	*	*	*	*	*	*
1D	[1DD	.	(2a/	[1Bn [1f	.	1ryy	.	1ryy	.	.	.	1ryy	.	.	1ryy	.	.	2a/	świe-	tol-
.	.	.	[2g#X/)	.	.	.	.	.	.	.	.	.	.	.	.	.	.	4g#X/	-cie	-to...
.	.	.	.	.	.	.	.	.	.	.	.	.	.	.	.	.	.	4r	.	.
*v	*v	*	*	*	*	*	*	*	*	*	*	*	*	*	*	*	*	*	*	*
=9	=9	=9	=9	=9	=9	=9	=9	=9	=9	=9	=9	=9	=9	=9	=9	=9	=9	=9	=9
4DD/] 4D	.	4f/] 4g#]	1B]	.	1ryy	.	1ryy	.	.	.	1ryy	.	.	1ryy	.	.	1r	.	.
4DD'/ 4D	.	4f'</ 4g#X	.	.	.	.	.	.	.	.	.	.	.	.	.	.	.	.	.
4DD'/ 4D	.	4f'</ 4g#	.	.	.	.	.	.	.	.	.	.	.	.	.	.	.	.	.
4DD'/ 4D	.	4f'</ 4g#	.	.	.	.	.	.	.	.	.	.	.	.	.	.	.	.	.
*	*	*v	*v	*	*	*	*	*	*	*	*	*	*	*	*	*	*	*	*
=10	=10	=10	=10	=10	=10	=10	=10	=10	=10	=10	=10	=10	=10	=10	=10	=10	=10	=10
!	!	!LO:TX:a:B:t=Più lento.	!	!	!	!	!	!	!	!	!	!	!	!	!	!LO:TX:a:B:t=Più lento.	!	!
2CC/ 2C	.	(2c/ 2f 2a	.	1ryy	.	1ryy	.	.	.	1ryy	.	.	1ryy	.	.	4r	.	.
.	.	.	.	.	.	.	.	.	.	.	.	.	.	.	.	4cc\	Pójdź	Vien,
(<2C/	.	2B-X/ 2e 2gn	.	.	.	.	.	.	.	.	.	.	.	.	.	4r	.	.
.	.	.	.	.	.	.	.	.	.	.	.	.	.	.	.	8b-X\	bie-	vie-
.	.	.	.	.	.	.	.	.	.	.	.	.	.	.	.	8b-\	-dny	-ni o
=11	=11	=11	=11	=11	=11	=11	=11	=11	=11	=11	=11	=11	=11	=11	=11	=11	=11	=11
2D\	.	2A/ 2d 2f	.	1ryy	.	1ryy	.	.	.	1ryy	.	.	1ryy	.	.	4b-X\	star-	ve-
.	.	.	.	.	.	.	.	.	.	.	.	.	.	.	.	4a/	-cze!	-glio!
2AA\) 2A	.	2c#X/) 2e	.	.	.	.	.	.	.	.	.	.	.	.	.	4r	.	.
.	.	.	.	.	.	.	.	.	.	.	.	.	.	.	.	8a/	za	pria
.	.	.	.	.	.	.	.	.	.	.	.	.	.	.	.	8a/	nim	che
!!LO:LB:g=original	!	!	!	!	!	!	!	!	!	!	!	!	!	!	!	!	!	!
=12	=12	=12	=12	=12	=12	=12	=12	=12	=12	=12	=12	=12	=12	=12	=12	=12	=12	=12
((2BB-X\ 2F	.	(<2d/	.	1ryy	.	1ryy	.	.	.	1ryy	.	.	1ryy	.	.	4dd\	ży-	noi
.	.	.	.	.	.	.	.	.	.	.	.	.	.	.	.	4dd\	-cie	col-
2GG/)) 2G	.	2B-X/) 2d	.	.	.	.	.	.	.	.	.	.	.	.	.	4.ee\	nam	-pi-
.	.	.	.	.	.	.	.	.	.	.	.	.	.	.	.	8dd\	od-	-scan
=13||	=13||	=13||	=13||	=13||	=13||	=13||	=13||	=13||	=13||	=13||	=13||	=13||	=13||	=13||	=13||	=13||	=13||	=13||
*k[f#]	*	*k[f#]	*	*k[f#]	*	*k[f#]	*	*	*	*k[f#]	*	*	*k[f#]	*	*	*k[f#]	*	*
*^	*	*^	*	*	*	*	*	*	*	*	*	*	*	*	*	*	*	*
*	*	*	*	*^	*	*	*	*	*	*	*	*	*	*	*	*	*	*	*	*
!	!	!	!LO:TX:a:B:t=Andante.	!	!	!	!	!	!	!	!	!	!	!	!	!	!	!	!	!	!
!	!	!	!LO:TX:a:t=Fag.	!	!	!	!	!	!	!	!	!	!	!	!	!	!	!	!LO:TX:a:B:t=Andante.	!	!
2F#/ 2A	2DD\	.	2rgg	2rdd	[<1d	p	1ryy	.	1ryy	.	.	.	1ryy	.	.	1ryy	.	.	2dd\	-bio-	pu-
2r	2ryy	.	4r	4f#/	.	.	.	.	.	.	.	.	.	.	.	.	.	.	4a/	-rą...	-re.
!	!	!	!LO:TX:a:t=Cl.	!	!	!	!	!	!	!	!	!	!	!	!	!	!	!	!	!	!
.	.	.	4ryy	4f#/ [>4a	.	.	.	.	.	.	.	.	.	.	.	.	.	.	4r	.	.
*v	*v	*	*	*	*	*	*	*	*	*	*	*	*	*	*	*	*	*	*	*	*
*	*	*v	*v	*v	*	*	*	*	*	*	*	*	*	*	*	*	*	*	*	*
=14	=14	=14	=14	=14	=14	=14	=14	=14	=14	=14	=14	=14	=14	=14	=14	=14	=14	=14
1r	.	1d_ [1f# 1a_ [1cc	.	1ryy	.	1ryy	.	.	.	1ryy	.	.	1ryy	.	.	2r	.	.
.	.	.	.	.	.	.	.	.	.	.	.	.	.	.	.	4f#/	Pójdź!	Vien,
.	.	.	.	.	.	.	.	.	.	.	.	.	.	.	.	8a/	jesz-	ti
.	.	.	.	.	.	.	.	.	.	.	.	.	.	.	.	8cc\	-cze	ri-
=15	=15	=15	=15	=15	=15	=15	=15	=15	=15	=15	=15	=15	=15	=15	=15	=15	=15	=15
2r	.	4d/] 4f#] 4a] 4cc]	.	1ryy	.	1ryy	.	.	.	1ryy	.	.	1ryy	.	.	4ee\	je-	-ma-
.	.	4r	.	.	.	.	.	.	.	.	.	.	.	.	.	8dd\	-dno	-ne
.	.	.	.	.	.	.	.	.	.	.	.	.	.	.	.	8a/	zo-	pur
!	!	!LO:TX:b:t=Q.	!	!	!	!	!	!	!	!	!	!	!	!	!	!	!	!
2D\	.	2A/ 2c 2f#	.	.	.	.	.	.	.	.	.	.	.	.	.	4cc\	-sta-	an-
.	.	.	.	.	.	.	.	.	.	.	.	.	.	.	.	(16qqdd/LL	.	.
.	.	.	.	.	.	.	.	.	.	.	.	.	.	.	.	16qqcc/JJ)	.	.
.	.	.	.	.	.	.	.	.	.	.	.	.	.	.	.	8b\	-ło	-cou-
.	.	.	.	.	.	.	.	.	.	.	.	.	.	.	.	8a/	ci	-na
!!LO:PB:g=original	!	!	!	!	!	!	!	!	!	!	!	!	!	!	!	!	!	!
=16	=16	=16	=16	=16	=16	=16	=16	=16	=16	=16	=16	=16	=16	=16	=16	=16	=16	=16
*^	*	*^	*	*	*	*^	*	*	*	*	*	*	*	*	*	*	*	*
!	!	!	!	!	!	!	!	!	!	!	!	!	!LO:TX:a:t=Akeb.\nAkeb.	!	!	!	!	!	!	!	!
8.rG	1GG	.	8B/ 8g	2ryy	.	8.r	.	8.r	2ryy	.	.	.	8.r	.	.	1ryy	.	.	4g/	dzie-	fi-
.	.	.	(8d/L 8b	.	.	.	.	.	.	.	.	.	.	.	.	.	.	.	.	.	.
16D/ 16G	.	.	.	.	.	16G\	.	16b\	.	O	Qual	.	16B\	O	Qual	.	.	.	.	.	.
4D/ 4G	.	.	8c#X/ 8a#X	.	.	4G\	.	4b\ 4dd	.	hań-	on-	.	4d\	hań-	on-	.	.	.	4g/	-cię	-glia.
.	.	.	8d/J) 8b	.	.	.	.	.	.	.	.	.	.	.	.	.	.	.	.	.	.
2r	.	.	2g/	8B\	.	8GG/	.	8g/	8g\	-bo!	-ta!	.	8G\	-bo!	-ta!	.	.	.	8r	.	.
!	!	!	!	!	!	!	!	!	!	!	!	!	!	!	!	!	!	!	!LO:TX:a:i:t=dol.	!	!
.	.	.	.	(8B\L 8d	.	8r	.	8r	8ryy	.	.	.	8r	.	.	.	.	.	8b/	Pójdź	Par-
.	.	.	.	8A#X\ 8c#	.	4r	.	4r	4ryy	.	.	.	4r	.	.	.	.	.	8a#X/	za-	-tia-
.	.	.	.	8B\J) 8d	.	.	.	.	.	.	.	.	.	.	.	.	.	.	8b/	-nim	-mo
*v	*v	*	*	*	*	*	*	*v	*v	*	*	*	*	*	*	*	*	*	*	*	*
=17	=17	=17	=17	=17	=17	=17	=17	=17	=17	=17	=17	=17	=17	=17	=17	=17	=17	=17	=17
1GG	.	8r	8G\ 8B	.	1r	.	1r	.	.	.	1r	.	.	1ryy	.	.	4.dd\	bie-	pria
.	.	(8d/L 8b	4.ryy	.	.	.	.	.	.	.	.	.	.	.	.	.	.	.	.
.	.	8c#X/ 8a#X	.	.	.	.	.	.	.	.	.	.	.	.	.	.	.	.	.
.	.	8d/J) 8b	.	.	.	.	.	.	.	.	.	.	.	.	.	.	8b\	-dne	che
.	.	2g/	8B\	.	.	.	.	.	.	.	.	.	.	.	.	.	8.b\	ży-	noi
.	.	.	(8B\L 8d	.	.	.	.	.	.	.	.	.	.	.	.	.	.	.	.
.	.	.	.	.	.	.	.	.	.	.	.	.	.	.	.	.	16b\	-cie	col-
.	.	.	8A#X\ 8c#	.	.	.	.	.	.	.	.	.	.	.	.	.	8a#X/	nam	-pi-
.	.	.	8B\J) 8d	.	.	.	.	.	.	.	.	.	.	.	.	.	8b\	od-	-scan
=18	=18	=18	=18	=18	=18	=18	=18	=18	=18	=18	=18	=18	=18	=18	=18	=18	=18	=18	=18
1GG	.	8ree	8G\ 8B 8fn	.	1r	.	1r	.	.	.	1r	.	.	1ryy	.	.	2dd\	-bio-	pu-
.	.	(<8d/L 8b	4.f\	.	.	.	.	.	.	.	.	.	.	.	.	.	.	.	.
.	.	8c#X/ 8a#X	.	.	.	.	.	.	.	.	.	.	.	.	.	.	.	.	.
.	.	8d/J) 8b	.	.	.	.	.	.	.	.	.	.	.	.	.	.	.	.	.
.	.	2g/	8B\	.	.	.	.	.	.	.	.	.	.	.	.	.	16b\	-rą.	-re.
.	.	.	.	.	.	.	.	.	.	.	.	.	.	.	.	.	16r	.	.
.	.	.	(8G\L 8B	.	.	.	.	.	.	.	.	.	.	.	.	.	8g/	Ja	Ram-
.	.	.	8B\ 8d	.	.	.	.	.	.	.	.	.	.	.	.	.	8b\	od-	-min-
.	.	.	8G\J) 8B	.	.	.	.	.	.	.	.	.	.	.	.	.	8dd\	-tąd	-ghe-
=19	=19	=19	=19	=19	=19	=19	=19	=19	=19	=19	=19	=19	=19	=19	=19	=19	=19	=19	=19
!	!	!	!	!LO:HP:a	!	!	!	!	!	!	!	!	!	!	!	!	!	!	!
1GG	.	(2d/ 2fn	8B\L	<	1r	.	1r	.	.	.	1r	.	.	1ryy	.	.	4.gg\	bę-	-rem,
.	.	.	8G\	.	.	.	.	.	.	.	.	.	.	.	.	.	.	.	.
.	.	.	8B\	.	.	.	.	.	.	.	.	.	.	.	.	.	.	.	.
.	.	.	8G\J	.	.	.	.	.	.	.	.	.	.	.	.	.	8g/	-dę	re-
!	!	!	!	!LO:HP:a	!	!	!	!	!	!	!	!	!	!	!	!	!	!	!
.	.	4e/	8c\L	[ >	.	.	.	.	.	.	.	.	.	.	.	.	4g/	two-	-jet-
.	.	.	8G\	.	.	.	.	.	.	.	.	.	.	.	.	.	.	.	.
.	.	4c#X/) 4g	8A#X\	.	.	.	.	.	.	.	.	.	.	.	.	.	8.ee\	-ją	-te
.	.	.	8G\J	.	.	.	.	.	.	.	.	.	.	.	.	.	.	.	.
.	.	.	.	]]	.	.	.	.	.	.	.	.	.	.	.	.	16dd\	pod	crea
!!LO:LB:g=original	!	!	!	!	!	!	!	!	!	!	!	!	!	!	!	!	!	!	!
=20	=20	=20	=20	=20	=20	=20	=20	=20	=20	=20	=20	=20	=20	=20	=20	=20	=20	=20	=20
*	*	*	*^	*	*	*	*	*	*	*	*	*	*	*	*	*	*	*	*
2GG/	.	(8B/L 8d	2ryy	2ryy	.	1ryy	.	1ryy	.	.	.	8.r	.	.	1ryy	.	.	2dd\	po-	tu-
.	.	8G/ 8g	.	.	.	.	.	.	.	.	.	.	.	.	.	.	.	.	.	.
.	.	.	.	.	.	.	.	.	.	.	.	16G\	Ne-	Ne-	.	.	.	.	.	.
.	.	8d/ 8b	.	.	.	.	.	.	.	.	.	8B\	-a-	-a-	.	.	.	.	.	.
.	.	8cn/J) 8an	.	.	.	.	.	.	.	.	.	8D\	-lo!	-la!	.	.	.	.	.	.
2EE/ 2E	.	2g#X/	8rd	2B\	.	.	.	.	.	.	.	2r	.	.	.	.	.	8dd\	-rą	-re.
.	.	.	(8d\L	.	.	.	.	.	.	.	.	.	.	.	.	.	.	8ffn\	Jam	A
.	.	.	8f#\	.	.	.	.	.	.	.	.	.	.	.	.	.	.	8.ee\	twe	tuo
.	.	.	8d\J)	.	.	.	.	.	.	.	.	.	.	.	.	.	.	.	.	.
.	.	.	.	.	.	.	.	.	.	.	.	.	.	.	.	.	.	16b\	je-	so-
*	*	*v	*v	*v	*	*	*	*	*	*	*	*	*	*	*	*	*	*	*	*
=21	=21	=21	=21	=21	=21	=21	=21	=21	=21	=21	=21	=21	=21	=21	=21	=21	=21	=21
4AA/	.	(8c/L 8a	.	1ryy	.	1ryy	.	.	.	8.r	.	.	1ryy	.	.	4.cc\	-dy-	-ste-
.	.	8e/	.	.	.	.	.	.	.	.	.	.	.	.	.	.	.	.
.	.	.	.	.	.	.	.	.	.	16A\	Co	Che	.	.	.	.	.	.
4r	.	8c/ 8a	.	.	.	.	.	.	.	8c\	czy-	fa-	.	.	.	.	.	.
.	.	8B/J) 8g	.	.	.	.	.	.	.	8E\	-nisz?	-i?	.	.	.	8cc\	-ne	-gno a-
8DD/	.	8A/ 8f#	.	.	.	.	.	.	.	2r	.	.	.	.	.	8cc\	po-	-vrai
(8D\L	.	(8c/L	.	.	.	.	.	.	.	.	.	.	.	.	.	8ee\	-zo-	da
8F#\	.	8d/	.	.	.	.	.	.	.	.	.	.	.	.	.	8dd\	-sta-	me a-
8D\J)	.	8a/J)	.	.	.	.	.	.	.	.	.	.	.	.	.	8cc\	-ło	-li-
=22	=22	=22	=22	=22	=22	=22	=22	=22	=22	=22	=22	=22	=22	=22	=22	=22	=22	=22
(4GG/ 4G	.	8g/L	.	1ryy	.	1ryy	.	.	.	1r	.	.	1ryy	.	.	4cc\	dzie-	-men-
.	.	8B'/J 8g	.	.	.	.	.	.	.	.	.	.	.	.	.	.	.	.
4FF#/ 4F#	.	8r	.	.	.	.	.	.	.	.	.	.	.	.	.	4b\	-cię,	-to.
.	.	8G/ 8B 8g	.	.	.	.	.	.	.	.	.	.	.	.	.	.	.	.
4EE/ 4E	.	8r	.	.	.	.	.	.	.	.	.	.	.	.	.	8r	.	.
.	.	8G/ 8B 8g	.	.	.	.	.	.	.	.	.	.	.	.	.	8b\	Co	Ti
4DD/) 4D	.	8r	.	.	.	.	.	.	.	.	.	.	.	.	.	8b\	w głę-	gui-
.	.	8G/ 8B 8g	.	.	.	.	.	.	.	.	.	.	.	.	.	8b\	-bi	-de
!!LO:LB:g=original	!	!	!	!	!	!	!	!	!	!	!	!	!	!	!	!	!	!
=23	=23	=23	=23	=23	=23	=23	=23	=23	=23	=23	=23	=23	=23	=23	=23	=23	=23	=23
*	*	*tremolo	*	*	*	*	*	*	*	*	*	*	*	*	*	*	*	*
8CC#X'/L 8C#X	.	32c#X/LLL 32e 32g	fp	1ryy	.	1ryy	.	.	.	1r	.	.	1ryy	.	.	4.b\	la-	ro-
.	.	32A/	.	.	.	.	.	.	.	.	.	.	.	.	.	.	.	.
.	.	32c#/ 32e 32g	.	.	.	.	.	.	.	.	.	.	.	.	.	.	.	.
.	.	32A/	.	.	.	.	.	.	.	.	.	.	.	.	.	.	.	.
8E'/	.	32c#/ 32e 32g	.	.	.	.	.	.	.	.	.	.	.	.	.	.	.	.
.	.	32A/	.	.	.	.	.	.	.	.	.	.	.	.	.	.	.	.
.	.	32c#/ 32e 32g	.	.	.	.	.	.	.	.	.	.	.	.	.	.	.	.
.	.	32A/	.	.	.	.	.	.	.	.	.	.	.	.	.	.	.	.
8G'/J	.	32c#/ 32e 32g	.	.	.	.	.	.	.	.	.	.	.	.	.	.	.	.
.	.	32A/	.	.	.	.	.	.	.	.	.	.	.	.	.	.	.	.
.	.	32c#/ 32e 32g	.	.	.	.	.	.	.	.	.	.	.	.	.	.	.	.
.	.	32A/	.	.	.	.	.	.	.	.	.	.	.	.	.	.	.	.
8r	.	32c#/ 32e 32g	.	.	.	.	.	.	.	.	.	.	.	.	.	8g/	-sów	-ne;
.	.	32A/	.	.	.	.	.	.	.	.	.	.	.	.	.	.	.	.
.	.	32c#/ 32e 32g	.	.	.	.	.	.	.	.	.	.	.	.	.	.	.	.
.	.	32A/JJJ	.	.	.	.	.	.	.	.	.	.	.	.	.	.	.	.
2r	.	32c#/LLL 32e 32g	.	.	.	.	.	.	.	.	.	.	.	.	.	8.b/	twe	bo-
.	.	32A/	.	.	.	.	.	.	.	.	.	.	.	.	.	.	.	.
.	.	32c#/ 32e 32g	.	.	.	.	.	.	.	.	.	.	.	.	.	.	.	.
.	.	32A/	.	.	.	.	.	.	.	.	.	.	.	.	.	.	.	.
.	.	32c#/ 32e 32g	.	.	.	.	.	.	.	.	.	.	.	.	.	.	.	.
.	.	32A/	.	.	.	.	.	.	.	.	.	.	.	.	.	.	.	.
.	.	32c#/ 32e 32g	.	.	.	.	.	.	.	.	.	.	.	.	.	16b/	po-	-schi
.	.	32A/	.	.	.	.	.	.	.	.	.	.	.	.	.	.	.	.
.	.	32c#/ 32e 32g	.	.	.	.	.	.	.	.	.	.	.	.	.	8a/	-dzie-	tuoi
.	.	32A/	.	.	.	.	.	.	.	.	.	.	.	.	.	.	.	.
.	.	32c#/ 32e 32g	.	.	.	.	.	.	.	.	.	.	.	.	.	.	.	.
.	.	32A/	.	.	.	.	.	.	.	.	.	.	.	.	.	.	.	.
.	.	32c#/ 32e 32g	.	.	.	.	.	.	.	.	.	.	.	.	.	8g/	-lę	na-
.	.	32A/	.	.	.	.	.	.	.	.	.	.	.	.	.	.	.	.
.	.	32c#/ 32e 32g	.	.	.	.	.	.	.	.	.	.	.	.	.	.	.	.
.	.	32A/JJJ	.	.	.	.	.	.	.	.	.	.	.	.	.	.	.	.
=24	=24	=24	=24	=24	=24	=24	=24	=24	=24	=24	=24	=24	=24	=24	=24	=24	=24	=24
8DD'/L 8D	.	32d/LLL 32f#	.	1ryy	.	1ryy	.	.	.	8r	.	.	1ryy	.	.	(4f#/	łzy.	-ti-
.	.	32A/	.	.	.	.	.	.	.	.	.	.	.	.	.	.	.	.
.	.	32d/ 32f#	.	.	.	.	.	.	.	.	.	.	.	.	.	.	.	.
.	.	32A/	.	.	.	.	.	.	.	.	.	.	.	.	.	.	.	.
8F#'/	.	32d/ 32f#	.	.	.	.	.	.	.	8A\	Co	Che	.	.	.	.	.	.
.	.	32A/	.	.	.	.	.	.	.	.	.	.	.	.	.	.	.	.
.	.	32d/ 32f#	.	.	.	.	.	.	.	.	.	.	.	.	.	.	.	.
.	.	32A/	.	.	.	.	.	.	.	.	.	.	.	.	.	.	.	.
8A'/J	.	32d/ 32f#	.	.	.	.	.	.	.	4d\	sły-	sen-	.	.	.	4a/)	.	-vi.
.	.	32A/	.	.	.	.	.	.	.	.	.	.	.	.	.	.	.	.
.	.	32d/ 32f#	.	.	.	.	.	.	.	.	.	.	.	.	.	.	.	.
.	.	32A/	.	.	.	.	.	.	.	.	.	.	.	.	.	.	.	.
8r	.	32d/ 32f#	.	.	.	.	.	.	.	.	.	.	.	.	.	.	.	.
.	.	32A/	.	.	.	.	.	.	.	.	.	.	.	.	.	.	.	.
.	.	32d/ 32f#	.	.	.	.	.	.	.	.	.	.	.	.	.	.	.	.
.	.	32A/JJJ	.	.	.	.	.	.	.	.	.	.	.	.	.	.	.	.
2r	.	32d/LLL 32f#	.	.	.	.	.	.	.	8D\	-szę?!	-to?!	.	.	.	8r	.	.
.	.	32A/	.	.	.	.	.	.	.	.	.	.	.	.	.	.	.	.
.	.	32d/ 32f#	.	.	.	.	.	.	.	.	.	.	.	.	.	.	.	.
.	.	32A/	.	.	.	.	.	.	.	.	.	.	.	.	.	.	.	.
.	.	32d/ 32f#	.	.	.	.	.	.	.	8r	.	.	.	.	.	8d/	Co	La
.	.	32A/	.	.	.	.	.	.	.	.	.	.	.	.	.	.	.	.
.	.	32d/ 32f#	.	.	.	.	.	.	.	.	.	.	.	.	.	.	.	.
.	.	32A/	.	.	.	.	.	.	.	.	.	.	.	.	.	.	.	.
.	.	32d/ 32f#	.	.	.	.	.	.	.	4r	.	.	.	.	.	8.d/	w głę-	sor-
.	.	32A/	.	.	.	.	.	.	.	.	.	.	.	.	.	.	.	.
.	.	32d/ 32f#	.	.	.	.	.	.	.	.	.	.	.	.	.	.	.	.
.	.	32A/	.	.	.	.	.	.	.	.	.	.	.	.	.	.	.	.
.	.	32d/ 32f#	.	.	.	.	.	.	.	.	.	.	.	.	.	.	.	.
.	.	32A/	.	.	.	.	.	.	.	.	.	.	.	.	.	.	.	.
.	.	32d/ 32f#	.	.	.	.	.	.	.	.	.	.	.	.	.	16d/	-bi	-te
.	.	32A/JJJ	.	.	.	.	.	.	.	.	.	.	.	.	.	.	.	.
=25	=25	=25	=25	=25	=25	=25	=25	=25	=25	=25	=25	=25	=25	=25	=25	=25	=25	=25
8CC'/L 8C	.	32e-X/LLL 32g	.	1r	.	1r	.	.	.	1r	.	.	1ryy	.	.	4.g/	la-	tua
.	.	32c/	.	.	.	.	.	.	.	.	.	.	.	.	.	.	.	.
.	.	32e-/ 32g	.	.	.	.	.	.	.	.	.	.	.	.	.	.	.	.
.	.	32c/	.	.	.	.	.	.	.	.	.	.	.	.	.	.	.	.
8G'/	.	32e-/ 32g	.	.	.	.	.	.	.	.	.	.	.	.	.	.	.	.
.	.	32c/	.	.	.	.	.	.	.	.	.	.	.	.	.	.	.	.
.	.	32e-/ 32g	.	.	.	.	.	.	.	.	.	.	.	.	.	.	.	.
.	.	32c/	.	.	.	.	.	.	.	.	.	.	.	.	.	.	.	.
8c'/J	.	32e-/ 32g	.	.	.	.	.	.	.	.	.	.	.	.	.	.	.	.
.	.	32c/	.	.	.	.	.	.	.	.	.	.	.	.	.	.	.	.
.	.	32e-/ 32g	.	.	.	.	.	.	.	.	.	.	.	.	.	.	.	.
.	.	32c/	.	.	.	.	.	.	.	.	.	.	.	.	.	.	.	.
8r	.	32e-/ 32g	.	.	.	.	.	.	.	.	.	.	.	.	.	8g/	-sów	lie-
.	.	32c/	.	.	.	.	.	.	.	.	.	.	.	.	.	.	.	.
.	.	32e-/ 32g	.	.	.	.	.	.	.	.	.	.	.	.	.	.	.	.
.	.	32c/JJJ	.	.	.	.	.	.	.	.	.	.	.	.	.	.	.	.
2r	.	32e-/LLL 32g	.	.	.	.	.	.	.	.	.	.	.	.	.	8g/	twe	-ta
.	.	32c/	.	.	.	.	.	.	.	.	.	.	.	.	.	.	.	.
.	.	32e-/ 32g	.	.	.	.	.	.	.	.	.	.	.	.	.	.	.	.
.	.	32c/	.	.	.	.	.	.	.	.	.	.	.	.	.	.	.	.
.	.	32e-/ 32g	.	.	.	.	.	.	.	.	.	.	.	.	.	8g/	po-	di-
.	.	32c/	.	.	.	.	.	.	.	.	.	.	.	.	.	.	.	.
.	.	32e-/ 32g	.	.	.	.	.	.	.	.	.	.	.	.	.	.	.	.
.	.	32c/	.	.	.	.	.	.	.	.	.	.	.	.	.	.	.	.
.	.	32e-/ 32g	.	.	.	.	.	.	.	.	.	.	.	.	.	8a/	-dzie-	-vi-
.	.	32c/	.	.	.	.	.	.	.	.	.	.	.	.	.	.	.	.
.	.	32e-/ 32g	.	.	.	.	.	.	.	.	.	.	.	.	.	.	.	.
.	.	32c/	.	.	.	.	.	.	.	.	.	.	.	.	.	.	.	.
.	.	32e-/ 32g	.	.	.	.	.	.	.	.	.	.	.	.	.	8g/	-lę	-de
.	.	32c/	.	.	.	.	.	.	.	.	.	.	.	.	.	.	.	.
.	.	32e-/ 32g	.	.	.	.	.	.	.	.	.	.	.	.	.	.	.	.
.	.	32c/JJJ	.	.	.	.	.	.	.	.	.	.	.	.	.	.	.	.
!!LO:PB:g=original	!	!	!	!	!	!	!	!	!	!	!	!	!	!	!	!	!	!
=26	=26	=26	=26	=26	=26	=26	=26	=26	=26	=26	=26	=26	=26	=26	=26	=26	=26	=26
*	*	*	*	*^	*	*	*	*	*	*	*	*	*	*	*	*	*	*
!	!	!LO:TX:B:a:t=Più mosso.	!	!	!	!	!	!	!	!	!	!	!	!	!	!	!LO:TX:a:B:t=Più mosso.	!	!
8AA/L 8A	.	8d/L 8f#	f	8.r	2ryy	.	8.r	.	.	.	1ryy	.	.	1ryy	.	.	4f#/	łzy!	ro.
8FF#/ 8F#	.	8d/ 8a	.	.	.	.	.	.	.	.	.	.	.	.	.	.	.	.	.
.	.	.	.	16D\	.	.	16dd\	O	Qual	.	.	.	.	.	.	.	.	.	.
8DD/J 8D	.	8d/J 8f# 8dd	.	4D\ 4A	.	.	4dd\ 4ff#	hań-	on-	.	.	.	.	.	.	.	4r;	.	.
8r;	.	8r;	.	.	.	.	.	.	.	.	.	.	.	.	.	.	.	.	.
!	!	!LO:TX:a:B:t=Tempo I.	!	!	!	!	!	!	!	!	!	!	!	!	!	!	!	!	!
2r	.	2r	.	8D/	8D\	.	8dd\	-bo!	-ta!	.	.	.	.	.	.	.	8r	.	.
!	!	!	!	!	!	!	!	!	!	!	!	!	!	!	!	!	!LO:TX:a:B:t=Tempo I.	!	!
.	.	.	.	8r;	8ryy	.	8r;	.	.	.	.	.	.	.	.	.	8d/	Pójdź	Par
.	.	.	.	4r	4ryy	.	4r	.	.	.	.	.	.	.	.	.	8f#/	dro-	tiam,
.	.	.	.	.	.	.	.	.	.	.	.	.	.	.	.	.	8a/	-gi	o
*	*	*	*	*v	*v	*	*	*	*	*	*	*	*	*	*	*	*	*	*
=27	=27	=27	=27	=27	=27	=27	=27	=27	=27	=27	=27	=27	=27	=27	=27	=27	=27	=27
1r	.	1r	.	1r	.	1r	.	.	.	1ryy	.	.	1ryy	.	.	2cc\	Oj-	pa-
.	.	.	.	.	.	.	.	.	.	.	.	.	.	.	.	16a/	-cze,	-dre.
.	.	.	.	.	.	.	.	.	.	.	.	.	.	.	.	16r	.	.
.	.	.	.	.	.	.	.	.	.	.	.	.	.	.	.	8f#/	wszak	Vien,
.	.	.	.	.	.	.	.	.	.	.	.	.	.	.	.	8a/	jesz-	ti
.	.	.	.	.	.	.	.	.	.	.	.	.	.	.	.	8cc\	-cze	ri-
=28	=28	=28	=28	=28	=28	=28	=28	=28	=28	=28	=28	=28	=28	=28	=28	=28	=28	=28
2r	.	2r	.	1r	.	1r	.	.	.	1ryy	.	.	1ryy	.	.	4ee\	je-	-ma-
.	.	.	.	.	.	.	.	.	.	.	.	.	.	.	.	8.dd\	-dno	-ne
.	.	.	.	.	.	.	.	.	.	.	.	.	.	.	.	16a/	zo-	pur
!	!	!LO:TX:b:t=Cl.\ne\nFag.	!	!	!	!	!	!	!	!	!	!	!	!	!	!	!	!
2D\	.	2A/ 2c 2f#	p	.	.	.	.	.	.	.	.	.	.	.	.	4cc\	-sta-	an-
.	.	.	.	.	.	.	.	.	.	.	.	.	.	.	.	16qqdd/LL	.	.
.	.	.	.	.	.	.	.	.	.	.	.	.	.	.	.	16qqcc/JJ	.	.
.	.	.	.	.	.	.	.	.	.	.	.	.	.	.	.	8b\	-ło	-co u-
.	.	.	.	.	.	.	.	.	.	.	.	.	.	.	.	8a/	ci	-na
!!LO:LB:g=original	!	!	!	!	!	!	!	!	!	!	!	!	!	!	!	!	!	!
=29	=29	=29	=29	=29	=29	=29	=29	=29	=29	=29	=29	=29	=29	=29	=29	=29	=29	=29
*^	*	*	*	*	*	*	*	*	*	*	*	*	*	*	*	*	*	*
!	!	!	!LO:TX:b:t=Q.	!	!	!	!	!	!	!	!	!	!	!	!	!	!	!	!
*tremolo	*	*	*	*	*	*	*	*	*	*	*	*	*	*	*	*	*	*	*
8E/L	1EE	.	8G/ 8B 8g	.	1ryy	.	1ryy	.	.	.	1ryy	.	.	1ryy	.	.	2g/	dzie-	fi-
8E/	.	.	8B/L 8e 8g	.	.	.	.	.	.	.	.	.	.	.	.	.	.	.	.
8E/	.	.	8B/ 8e 8g	.	.	.	.	.	.	.	.	.	.	.	.	.	.	.	.
8E/J	.	.	8B/J 8e 8g	.	.	.	.	.	.	.	.	.	.	.	.	.	.	.	.
8E/L	.	.	8B/L 8e 8g	.	.	.	.	.	.	.	.	.	.	.	.	.	16e/	-cię,	-glia.
.	.	.	.	.	.	.	.	.	.	.	.	.	.	.	.	.	16r	.	.
8E/	.	.	8B/ 8e 8g	.	.	.	.	.	.	.	.	.	.	.	.	.	8e/	Co	La
8E/	.	.	8B/ 8e 8g	.	.	.	.	.	.	.	.	.	.	.	.	.	8g/	w głę-	sor-
8E/J	.	.	8B/J 8e 8g	.	.	.	.	.	.	.	.	.	.	.	.	.	8a/	-bi	-te
=30	=30	=30	=30	=30	=30	=30	=30	=30	=30	=30	=30	=30	=30	=30	=30	=30	=30	=30	=30
8D#X/L	2DD#X\	.	8B/L 8f#	.	1ryy	.	1ryy	.	.	.	1ryy	.	.	1ryy	.	.	4.b\	głu-	tua
8D#/	.	.	8B/ 8f#	.	.	.	.	.	.	.	.	.	.	.	.	.	.	.	.
8D#/	.	.	8B/ 8f#	.	.	.	.	.	.	.	.	.	.	.	.	.	.	.	.
8D#/J	.	.	8B/J 8f#	.	.	.	.	.	.	.	.	.	.	.	.	.	8b\	-chych	ne'
8Dn/L	2DDn\	.	8B/L 8fn 8g#X	.	.	.	.	.	.	.	.	.	.	.	.	.	8.ffn\	la-	bo
8D/	.	.	8B/ 8f 8g#	.	.	.	.	.	.	.	.	.	.	.	.	.	.	.	.
.	.	.	.	.	.	.	.	.	.	.	.	.	.	.	.	.	16dd\	-sów	schi io
8D/	.	.	8B/ 8f 8g#	.	.	.	.	.	.	.	.	.	.	.	.	.	8.b\	twe	pur
8D/J	.	.	8B/J 8f 8g#	.	.	.	.	.	.	.	.	.	.	.	.	.	.	.	.
.	.	.	.	.	.	.	.	.	.	.	.	.	.	.	.	.	16g#X/	po-	di-
=31	=31	=31	=31	=31	=31	=31	=31	=31	=31	=31	=31	=31	=31	=31	=31	=31	=31	=31	=31
8C#X/L	2CC#X\	.	8A/L 8e 8a	.	1ryy	.	1ryy	.	.	.	1ryy	.	.	1ryy	.	.	4.a/	-dzie-	-vi-
8C#/	.	.	8A/ 8e 8a	.	.	.	.	.	.	.	.	.	.	.	.	.	.	.	.
8C#/	.	.	8A/ 8e 8a	.	.	.	.	.	.	.	.	.	.	.	.	.	.	.	.
8C#/J	.	.	8A/J 8e 8a	.	.	.	.	.	.	.	.	.	.	.	.	.	8b/	-li	-de-
8CCn/L 8Cn	2ryy	.	8A/L 8e 8a	<	.	.	.	.	.	.	.	.	.	.	.	.	16a/	lzy.	-ro.
.	.	.	.	.	.	.	.	.	.	.	.	.	.	.	.	.	16r	.	.
8CC/ 8C	.	.	8d/ 8f# 8a	.	.	.	.	.	.	.	.	.	.	.	.	.	8a/	Jam	A
8BBB/ 8BB	.	.	8d/ 8g 8b	.	.	.	.	.	.	.	.	.	.	.	.	.	8b\	od-	tuo
8AAA/J 8AA	.	.	8d/J 8a 8cc	[[	.	.	.	.	.	.	.	.	.	.	.	.	8cc\	-tąd	so
!!LO:LB:g=original	!	!	!	!	!	!	!	!	!	!	!	!	!	!	!	!	!	!	!
=32	=32	=32	=32	=32	=32	=32	=32	=32	=32	=32	=32	=32	=32	=32	=32	=32	=32	=32	=32
*	*	*	*	*	*	*	*	*	*	*	*	*	*	*	*	*	*^	*	*
2GGG/ 2GG	2ryy	.	8d^/L 8b 8dd	.	1ryy	.	1ryy	.	.	.	1ryy	.	.	1ryy	.	.	4.dd\	2ryy	twą	ste-
.	.	.	(8d/	.	.	.	.	.	.	.	.	.	.	.	.	.	.	.	.	.
.	.	.	8B/ 8g	.	.	.	.	.	.	.	.	.	.	.	.	.	.	.	.	.
.	.	.	8d/J)	.	.	.	.	.	.	.	.	.	.	.	.	.	8b\	.	je-	-gno a-
(4A/	2GG\	.	(8c/L 8f#	.	.	.	.	.	.	.	.	.	.	.	.	.	(8.dd/L	8.dd\	-dy-	-vrai
.	.	.	8d/	.	.	.	.	.	.	.	.	.	.	.	.	.	.	.	.	.
.	.	.	.	.	.	.	.	.	.	.	.	.	.	.	.	.	16a/Jk)	16a\	.	da
4D/)	.	.	8c/ 8a	.	.	.	.	.	.	.	.	.	.	.	.	.	16b/LL	4ryy	-ną	me a-
.	.	.	.	.	.	.	.	.	.	.	.	.	.	.	.	.	16a/JJ	.	.	.
.	.	.	8d/J)	.	.	.	.	.	.	.	.	.	.	.	.	.	16g#X/LL	.	pod-	-li-
.	.	.	.	.	.	.	.	.	.	.	.	.	.	.	.	.	16a/JJ	.	.	.
*v	*v	*	*	*	*	*	*	*	*	*	*	*	*	*	*	*	*v	*v	*	*
=33	=33	=33	=33	=33	=33	=33	=33	=33	=33	=33	=33	=33	=33	=33	=33	=33	=33	=33
4GG/	.	(8B/L 8g	.	1ryy	.	1ryy	.	.	.	1ryy	.	.	1ryy	.	.	4ee\	-po-	-men-
.	.	8d/	.	.	.	.	.	.	.	.	.	.	.	.	.	.	.	.
4r	.	8g/	.	.	.	.	.	.	.	.	.	.	.	.	.	8dd\	-rą,	-to.
.	.	8b/J)	.	.	.	.	.	.	.	.	.	.	.	.	.	8r	.	.
2C/	.	8r	sf	.	.	.	.	.	.	.	.	.	.	.	.	8.ff#\L	Ja	Ne,
.	.	(8e/L	>	.	.	.	.	.	.	.	.	.	.	.	.	.	.	.
.	.	.	.	.	.	.	.	.	.	.	.	.	.	.	.	16ee\Jk	.	.
.	.	8a/	.	.	.	.	.	.	.	.	.	.	.	.	.	16dd\LL	w głę-	bo-
.	.	.	.	.	.	.	.	.	.	.	.	.	.	.	.	16cc\JJ	.	.
.	.	8c/J)	]]	.	.	.	.	.	.	.	.	.	.	.	.	16b/LL	-bi	-schi
.	.	.	.	.	.	.	.	.	.	.	.	.	.	.	.	16a/JJ	.	.
=34	=34	=34	=34	=34	=34	=34	=34	=34	=34	=34	=34	=34	=34	=34	=34	=34	=34	=34
*	*	*^	*	*	*	*	*	*	*	*	*	*	*	*	*	*^	*	*
(2D\	.	8r	2B\	.	1ryy	.	1ryy	.	.	.	1ryy	.	.	1ryy	.	.	8.g/L	8.g\	la-	tuoi
*	*	*Xtremolo	*	*	*	*	*	*	*	*	*	*	*	*	*	*	*	*	*	*
.	.	(8d/L	.	.	.	.	.	.	.	.	.	.	.	.	.	.	.	.	.	.
.	.	.	.	.	.	.	.	.	.	.	.	.	.	.	.	.	16f#/Jk	16f#\	.	na-
.	.	8g/	.	.	.	.	.	.	.	.	.	.	.	.	.	.	4g/	4ryy	-sow	-ti-
.	.	8d/J)	.	.	.	.	.	.	.	.	.	.	.	.	.	.	.	.	.	.
2C/)	.	8e/L	2A\	.	.	.	.	.	.	.	.	.	.	.	.	.	8.a/	2ryy	twe	-vi
.	.	(8e/	.	.	.	.	.	.	.	.	.	.	.	.	.	.	.	.	.	.
.	.	.	.	.	.	.	.	.	.	.	.	.	.	.	.	.	16a/	.	po-	ti
.	.	8a/	.	.	.	.	.	.	.	.	.	.	.	.	.	.	8g/	.	-dzie-	dui-
.	.	8e/J)	.	.	.	.	.	.	.	.	.	.	.	.	.	.	8a/	.	-lę	-de
*	*	*	*	*	*	*	*	*	*	*	*	*	*	*	*	*	*v	*v	*	*
!!LO:LB:g=original	!	!	!	!	!	!	!	!	!	!	!	!	!	!	!	!	!	!	!
=35	=35	=35	=35	=35	=35	=35	=35	=35	=35	=35	=35	=35	=35	=35	=35	=35	=35	=35	=35
*^	*	*	*	*	*	*	*	*	*	*	*	*	*	*	*	*	*	*	*
!	!	!	!LO:N:vis=2	!	!	!	!	!	!	!	!	!	!	!	!	!	!	!	!	!
(4F#/	2BB\	.	(<8d#X/L	2d#\	.	1ryy	.	1ryy	.	.	.	1ryy	.	.	1ryy	.	.	2b\	łzy	ro.
.	.	.	8f#/	.	.	.	.	.	.	.	.	.	.	.	.	.	.	.	.	.
4A/)	.	.	8b/	.	.	.	.	.	.	.	.	.	.	.	.	.	.	.	.	.
.	.	.	8f#/J)	.	.	.	.	.	.	.	.	.	.	.	.	.	.	.	.	.
2G#X/	4E\	.	8dn/L 8b	(4d\	.	.	.	.	.	.	.	.	.	.	.	.	.	4b\	Pójdź	Vi-
.	.	.	8e/	.	.	.	.	.	.	.	.	.	.	.	.	.	.	.	.	.
.	4D\	.	8b/	4B\)	.	.	.	.	.	.	.	.	.	.	.	.	.	8a#X/	zem-	-vrem
.	.	.	8e/J	.	.	.	.	.	.	.	.	.	.	.	.	.	.	8b\	-ną	co-
*	*	*	*v	*v	*	*	*	*	*	*	*	*	*	*	*	*	*	*	*	*
=36	=36	=36	=36	=36	=36	=36	=36	=36	=36	=36	=36	=36	=36	=36	=36	=36	=36	=36	=36
(4A/	2C#X\	.	8r	.	1ryy	.	1ryy	.	.	.	1ryy	.	.	1ryy	.	.	4.ee\	w dal	-la,
.	.	.	(8e/L	.	.	.	.	.	.	.	.	.	.	.	.	.	.	.	.
4Gn/ 4A	.	.	8a/	.	.	.	.	.	.	.	.	.	.	.	.	.	.	.	.
.	.	.	8e/J)	.	.	.	.	.	.	.	.	.	.	.	.	.	8an/	od	dal
4F#/	2Cn\	.	8d/L 8a	.	.	.	.	.	.	.	.	.	.	.	.	.	(<4a/	ludz-	mon-
.	.	.	(8d/	.	.	.	.	.	.	.	.	.	.	.	.	.	.	.	.
4A/)	.	.	8f#/	.	.	.	.	.	.	.	.	.	.	.	.	.	8b\)	.	-do
.	.	.	8d/J)	.	.	.	.	.	.	.	.	.	.	.	.	.	8cc\	-kich	lon
=37	=37	=37	=37	=37	=37	=37	=37	=37	=37	=37	=37	=37	=37	=37	=37	=37	=37	=37	=37
*	*	*	*^	*	*	*	*	*	*	*	*	*	*	*	*	*	*	*	*
2G/	2BB\	.	8d/L	2ryy	.	1ryy	.	1ryy	.	.	.	1ryy	.	.	1ryy	.	.	2dd\	praw	tan,
.	.	.	(8d/	.	.	.	.	.	.	.	.	.	.	.	.	.	.	.	.	.
.	.	.	8g/	.	.	.	.	.	.	.	.	.	.	.	.	.	.	.	.	.
.	.	.	8d/J)	.	.	.	.	.	.	.	.	.	.	.	.	.	.	.	.	.
(4BB-X/	2ryy	.	(4g/	(8G\	<	.	.	.	.	.	.	.	.	.	.	.	.	8r	.	.
.	.	.	.	4d\	.	.	.	.	.	.	.	.	.	.	.	.	.	8g/	Ty-	o-
4AA-X/)	.	.	4fn/)	.	.	.	.	.	.	.	.	.	.	.	.	.	.	8.g^>/	-gry-	-ve
.	.	.	.	8B-X\)	.	.	.	.	.	.	.	.	.	.	.	.	.	.	.	.
.	.	.	.	.	[[	.	.	.	.	.	.	.	.	.	.	.	.	16fn/	-sy	non
*v	*v	*	*	*	*	*	*	*	*	*	*	*	*	*	*	*	*	*	*	*
*	*	*v	*v	*	*	*	*	*	*	*	*	*	*	*	*	*	*	*	*
=38	=38	=38	=38	=38	=38	=38	=38	=38	=38	=38	=38	=38	=38	=38	=38	=38	=38	=38
*	*	*tremolo	*	*	*	*	*	*	*	*	*	*	*	*	*	*	*	*
8GGG/L 8GG	.	16B-X/LL 16e-X	fp	1ryy	.	1ryy	.	.	.	1ryy	.	.	1ryy	.	.	4e-X^>/	tam	re-
.	.	16G/	.	.	.	.	.	.	.	.	.	.	.	.	.	.	.	.
8BBB-X/J 8BB-X	.	16B-/ 16e-	.	.	.	.	.	.	.	.	.	.	.	.	.	.	.	.
.	.	16G/	.	.	.	.	.	.	.	.	.	.	.	.	.	.	.	.
8EE-X/ 8E-X	.	16B-/ 16e-	.	.	.	.	.	.	.	.	.	.	.	.	.	4g^>/	mniej	-gna
.	.	16G/	.	.	.	.	.	.	.	.	.	.	.	.	.	.	.	.
8r	.	16B-/ 16e-	.	.	.	.	.	.	.	.	.	.	.	.	.	.	.	.
.	.	16G/JJ	.	.	.	.	.	.	.	.	.	.	.	.	.	.	.	.
2r	.	16B-/LL 16e-	.	.	.	.	.	.	.	.	.	.	.	.	.	4b-X^\	ła-	l'o-
.	.	16G/	.	.	.	.	.	.	.	.	.	.	.	.	.	.	.	.
.	.	16B-/ 16e-	.	.	.	.	.	.	.	.	.	.	.	.	.	.	.	.
.	.	16G/	.	.	.	.	.	.	.	.	.	.	.	.	.	.	.	.
.	.	16B-/ 16e-	.	.	.	.	.	.	.	.	.	.	.	.	.	4ee-X^\	-kną	-dio u-
.	.	16G/	.	.	.	.	.	.	.	.	.	.	.	.	.	.	.	.
.	.	16B-/ 16e-	.	.	.	.	.	.	.	.	.	.	.	.	.	.	.	.
.	.	16G/JJ	.	.	.	.	.	.	.	.	.	.	.	.	.	.	.	.
!!LO:PB:g=original	!	!	!	!	!	!	!	!	!	!	!	!	!	!	!	!	!	!
=39	=39	=39	=39	=39	=39	=39	=39	=39	=39	=39	=39	=39	=39	=39	=39	=39	=39	=39
!	!	!	!	!	!	!	!	!	!	!LO:TX:a:t=Ak.\nAkeb.	!	!	!	!	!	!	!	!
4AAA-X/ 4AA-X	.	32c-X/LLL 32e-X 32fn	sf >	8.r	.	8.r	.	.	.	8.r	.	.	1ryy	.	.	2ffn\	krwi,	-man.
.	.	32A-X/	.	.	.	.	.	.	.	.	.	.	.	.	.	.	.	.
.	.	32c-/ 32e- 32f	.	.	.	.	.	.	.	.	.	.	.	.	.	.	.	.
.	.	32A-/	.	.	.	.	.	.	.	.	.	.	.	.	.	.	.	.
.	.	32c-/ 32e- 32f	.	.	.	.	.	.	.	.	.	.	.	.	.	.	.	.
.	.	32A-/	.	.	.	.	.	.	.	.	.	.	.	.	.	.	.	.
!	!	!	!	!	!LO:DY:a	!	!	!	!LO:DY:a	!	!	!	!	!	!	!	!	!
.	.	32c-/ 32e- 32f	.	16A-X\	f	16cc-X\	Prze-	Ob-	f	16A-X\	Prze-	Ob-	.	.	.	.	.	.
.	.	32A-/	.	.	.	.	.	.	.	.	.	.	.	.	.	.	.	.
4CC-X/ 4C-X	.	32c-/ 32e- 32f	.	2A-^\	.	2cc-^\	-kleń-	-bro-	.	2c-X^\	-kleń-	-bro-	.	.	.	.	.	.
.	.	32A-/	.	.	.	.	.	.	.	.	.	.	.	.	.	.	.	.
.	.	32c-/ 32e- 32f	.	.	.	.	.	.	.	.	.	.	.	.	.	.	.	.
.	.	32A-/	.	.	.	.	.	.	.	.	.	.	.	.	.	.	.	.
.	.	32c-/ 32e- 32f	.	.	.	.	.	.	.	.	.	.	.	.	.	.	.	.
.	.	32A-/	.	.	.	.	.	.	.	.	.	.	.	.	.	.	.	.
.	.	32c-/ 32e- 32f	.	.	.	.	.	.	.	.	.	.	.	.	.	.	.	.
.	.	32A-/	.	.	.	.	.	.	.	.	.	.	.	.	.	.	.	.
4FFFn/ 4FFn	.	32c-/ 32e- 32f	.	.	.	.	.	.	.	.	.	.	.	.	.	4fn/	Tam	Lag-
.	.	32A-/	.	.	.	.	.	.	.	.	.	.	.	.	.	.	.	.
.	.	32c-/ 32e- 32f	.	.	.	.	.	.	.	.	.	.	.	.	.	.	.	.
.	.	32A-/	.	.	.	.	.	.	.	.	.	.	.	.	.	.	.	.
.	.	32c-/ 32e- 32f	.	.	.	.	.	.	.	.	.	.	.	.	.	.	.	.
.	.	32A-/	.	.	.	.	.	.	.	.	.	.	.	.	.	.	.	.
.	.	32c-/ 32e- 32f	.	.	.	.	.	.	.	.	.	.	.	.	.	.	.	.
.	.	32A-/JJJ	.	.	.	.	.	.	.	.	.	.	.	.	.	.	.	.
8BBB-X/L 8BB-X	.	32B-X/LLL 32d 32f	.	8BB-X/	.	8b-X\	-stwo!	-brio!	.	8B-X\	-stwo!	-brio!	.	.	.	8.g/	sro-	-giu
.	.	32A-/	.	.	.	.	.	.	.	.	.	.	.	.	.	.	.	.
.	.	32B-/ 32d 32f	.	.	.	.	.	.	.	.	.	.	.	.	.	.	.	.
.	.	32A-/	.	.	.	.	.	.	.	.	.	.	.	.	.	.	.	.
8AAA-/J 8AA-	.	32B-/ 32d 32f	.	8r	.	8r	.	.	.	8r	.	.	.	.	.	.	.	.
.	.	32A-/	.	.	.	.	.	.	.	.	.	.	.	.	.	.	.	.
.	.	32B-/ 32d 32f	.	.	.	.	.	.	.	.	.	.	.	.	.	16f/	-gość	le
.	.	32A-/JJJ	]]	.	.	.	.	.	.	.	.	.	.	.	.	.	.	.
=40	=40	=40	=40	=40	=40	=40	=40	=40	=40	=40	=40	=40	=40	=40	=40	=40	=40	=40
!	!	!	!LO:HP:b:t=dimin.	!	!	!	!	!	!	!	!	!	!	!	!	!	!	!
8GGG/L 8GG	.	32B-X/LLL 32e-X	>	2r	.	2r	.	.	.	2r	.	.	1ryy	.	.	4e-X/	praw	ti-
.	.	32G/	.	.	.	.	.	.	.	.	.	.	.	.	.	.	.	.
.	.	32B-/ 32e-	.	.	.	.	.	.	.	.	.	.	.	.	.	.	.	.
.	.	32G/	.	.	.	.	.	.	.	.	.	.	.	.	.	.	.	.
8BBB-X/ 8BB-X	.	32B-/ 32e-	.	.	.	.	.	.	.	.	.	.	.	.	.	.	.	.
.	.	32G/	.	.	.	.	.	.	.	.	.	.	.	.	.	.	.	.
.	.	32B-/ 32e-	.	.	.	.	.	.	.	.	.	.	.	.	.	.	.	.
.	.	32G/	.	.	.	.	.	.	.	.	.	.	.	.	.	.	.	.
8EE-X/ 8E-X	.	32B-/ 32e-	.	.	.	.	.	.	.	.	.	.	.	.	.	8g/	ludz-	-gri
.	.	32G/	.	.	.	.	.	.	.	.	.	.	.	.	.	.	.	.
.	.	32B-/ 32e-	.	.	.	.	.	.	.	.	.	.	.	.	.	.	.	.
.	.	32G/	.	.	.	.	.	.	.	.	.	.	.	.	.	.	.	.
(8FFn/J	.	32B-/ 32e-	.	.	.	.	.	.	.	.	.	.	.	.	.	8g/	-kich	son
.	.	32G/	.	.	.	.	.	.	.	.	.	.	.	.	.	.	.	.
.	.	32B-/ 32e-	.	.	.	.	.	.	.	.	.	.	.	.	.	.	.	.
.	.	32G/JJJ	.	.	.	.	.	.	.	.	.	.	.	.	.	.	.	.
8GG/L	.	32B-/LLL 32e-	.	4r	.	4r	.	.	.	4r	.	.	.	.	.	4b-X\	nie	men
.	.	32G/	.	.	.	.	.	.	.	.	.	.	.	.	.	.	.	.
.	.	32B-/ 32e-	.	.	.	.	.	.	.	.	.	.	.	.	.	.	.	.
.	.	32G/	.	.	.	.	.	.	.	.	.	.	.	.	.	.	.	.
8BB-/	.	32B-/ 32e-	.	.	.	.	.	.	.	.	.	.	.	.	.	.	.	.
.	.	32G/	.	.	.	.	.	.	.	.	.	.	.	.	.	.	.	.
.	.	32B-/ 32e-	.	.	.	.	.	.	.	.	.	.	.	.	.	.	.	.
.	.	32G/	.	.	.	.	.	.	.	.	.	.	.	.	.	.	.	.
8E-/	.	32B-/ 32e-	.	8.r	.	8.r	.	.	.	8.r	.	.	.	.	.	4ee-X\	do-	fe-
.	.	32G/	.	.	.	.	.	.	.	.	.	.	.	.	.	.	.	.
.	.	32B-/ 32e-	.	.	.	.	.	.	.	.	.	.	.	.	.	.	.	.
.	.	32G/	.	.	.	.	.	.	.	.	.	.	.	.	.	.	.	.
8G/J)	.	32B-/ 32e-	.	.	.	.	.	.	.	.	.	.	.	.	.	.	.	.
.	.	32G/	.	.	.	.	.	.	.	.	.	.	.	.	.	.	.	.
.	.	32B-/ 32e-	.	16G\	.	16b-X\	Prze-	Ob-	.	16G\	Prze-	Ob-	.	.	.	.	.	.
.	.	32G/JJJ	.	.	.	.	.	.	.	.	.	.	.	.	.	.	.	.
=41	=41	=41	=41	=41	=41	=41	=41	=41	=41	=41	=41	=41	=41	=41	=41	=41	=41	=41
2GG/	.	32B-X/LLL 32d 32fn	pp	2G\	.	2b-X\	-kleń-	-bro-	.	2B-X\	-kleń-	-bro-	1ryy	.	.	2dd\	-go-	-ro-
.	.	32G/	.	.	.	.	.	.	.	.	.	.	.	.	.	.	.	.
.	.	32B-/ 32d 32f	.	.	.	.	.	.	.	.	.	.	.	.	.	.	.	.
.	.	32G/	.	.	.	.	.	.	.	.	.	.	.	.	.	.	.	.
.	.	32B-/ 32d 32f	.	.	.	.	.	.	.	.	.	.	.	.	.	.	.	.
.	.	32G/	.	.	.	.	.	.	.	.	.	.	.	.	.	.	.	.
.	.	32B-/ 32d 32f	.	.	.	.	.	.	.	.	.	.	.	.	.	.	.	.
.	.	32G/	.	.	.	.	.	.	.	.	.	.	.	.	.	.	.	.
.	.	32B-/ 32d 32f	.	.	.	.	.	.	.	.	.	.	.	.	.	.	.	.
.	.	32G/	.	.	.	.	.	.	.	.	.	.	.	.	.	.	.	.
.	.	32B-/ 32d 32f	.	.	.	.	.	.	.	.	.	.	.	.	.	.	.	.
.	.	32G/	.	.	.	.	.	.	.	.	.	.	.	.	.	.	.	.
.	.	32B-/ 32d 32f	.	.	.	.	.	.	.	.	.	.	.	.	.	.	.	.
.	.	32G/	.	.	.	.	.	.	.	.	.	.	.	.	.	.	.	.
.	.	32B-/ 32d 32f	.	.	.	.	.	.	.	.	.	.	.	.	.	.	.	.
.	.	32G/JJJ	.	.	.	.	.	.	.	.	.	.	.	.	.	.	.	.
8GG/	.	32B-/LLL 32c#X 32en	.	4GG/	.	4g/	-stwo!	-brio!	.	4G\	-stwo!	-brio!	.	.	.	4cc#X\	-ni,	-ci,
.	.	32G/	.	.	.	.	.	.	.	.	.	.	.	.	.	.	.	.
.	.	32B-/ 32c# 32e	.	.	.	.	.	.	.	.	.	.	.	.	.	.	.	.
.	.	32G/	.	.	.	.	.	.	.	.	.	.	.	.	.	.	.	.
8r	.	32B-/ 32c# 32e	.	.	.	.	.	.	.	.	.	.	.	.	.	.	.	.
.	.	32G/	.	.	.	.	.	.	.	.	.	.	.	.	.	.	.	.
.	.	32B-/ 32c# 32e	.	.	.	.	.	.	.	.	.	.	.	.	.	.	.	.
.	.	32G/	.	.	.	.	.	.	.	.	.	.	.	.	.	.	.	.
8GG/	.	32B-/ 32c# 32e	.	4r	.	4r	.	.	.	4r	.	.	.	.	.	8r	.	.
.	.	32G/	.	.	.	.	.	.	.	.	.	.	.	.	.	.	.	.
.	.	32B-/ 32c# 32e	.	.	.	.	.	.	.	.	.	.	.	.	.	.	.	.
.	.	32G/	.	.	.	.	.	.	.	.	.	.	.	.	.	.	.	.
8r	.	32B-/ 32c# 32e	.	.	.	.	.	.	.	.	.	.	.	.	.	8cc#\	tam	men
.	.	32G/	.	.	.	.	.	.	.	.	.	.	.	.	.	.	.	.
.	.	32B-/ 32c# 32e	.	.	.	.	.	.	.	.	.	.	.	.	.	.	.	.
.	.	32G/JJJ	.	.	.	.	.	.	.	.	.	.	.	.	.	.	.	.
=42	=42	=42	=42	=42	=42	=42	=42	=42	=42	=42	=42	=42	=42	=42	=42	=42	=42	=42
1GG	.	32A/LLL 32cn 32e-X	.	1r	.	1r	.	.	.	1r	.	.	1ryy	.	.	4.ccn\	Bog	a-
.	.	32G/	.	.	.	.	.	.	.	.	.	.	.	.	.	.	.	.
.	.	32A/ 32c 32e-	.	.	.	.	.	.	.	.	.	.	.	.	.	.	.	.
.	.	32G/	.	.	.	.	.	.	.	.	.	.	.	.	.	.	.	.
.	.	32A/ 32c 32e-	.	.	.	.	.	.	.	.	.	.	.	.	.	.	.	.
.	.	32G/	.	.	.	.	.	.	.	.	.	.	.	.	.	.	.	.
.	.	32A/ 32c 32e-	.	.	.	.	.	.	.	.	.	.	.	.	.	.	.	.
.	.	32G/	.	.	.	.	.	.	.	.	.	.	.	.	.	.	.	.
.	.	32A/ 32c 32e-	.	.	.	.	.	.	.	.	.	.	.	.	.	.	.	.
.	.	32G/	.	.	.	.	.	.	.	.	.	.	.	.	.	.	.	.
.	.	32A/ 32c 32e-	.	.	.	.	.	.	.	.	.	.	.	.	.	.	.	.
.	.	32G/	.	.	.	.	.	.	.	.	.	.	.	.	.	.	.	.
.	.	32A/ 32c 32e-	.	.	.	.	.	.	.	.	.	.	.	.	.	8cc#X\	nas	-vi-
.	.	32G/	.	.	.	.	.	.	.	.	.	.	.	.	.	.	.	.
.	.	32A/ 32c 32e-	.	.	.	.	.	.	.	.	.	.	.	.	.	.	.	.
.	.	32G/JJJ	.	.	.	.	.	.	.	.	.	.	.	.	.	.	.	.
.	.	32A/LLL 32c 32d	.	.	.	.	.	.	.	.	.	.	.	.	.	4.dd\	sam	-de
.	.	32F#X/	.	.	.	.	.	.	.	.	.	.	.	.	.	.	.	.
.	.	32A/ 32c 32d	.	.	.	.	.	.	.	.	.	.	.	.	.	.	.	.
.	.	32F#/	.	.	.	.	.	.	.	.	.	.	.	.	.	.	.	.
.	.	32A/ 32c 32d	.	.	.	.	.	.	.	.	.	.	.	.	.	.	.	.
.	.	32F#/	.	.	.	.	.	.	.	.	.	.	.	.	.	.	.	.
.	.	32A/ 32c 32d	.	.	.	.	.	.	.	.	.	.	.	.	.	.	.	.
.	.	32F#/	.	.	.	.	.	.	.	.	.	.	.	.	.	.	.	.
.	.	32A/ 32c 32d	.	.	.	.	.	.	.	.	.	.	.	.	.	.	.	.
.	.	32F#/	.	.	.	.	.	.	.	.	.	.	.	.	.	.	.	.
.	.	32A/ 32c 32d	.	.	.	.	.	.	.	.	.	.	.	.	.	.	.	.
.	.	32F#/	.	.	.	.	.	.	.	.	.	.	.	.	.	.	.	.
.	.	32A/ 32c 32d	.	.	.	.	.	.	.	.	.	.	.	.	.	8a/	o	di
.	.	32F#/	.	.	.	.	.	.	.	.	.	.	.	.	.	.	.	.
.	.	32A/ 32c 32d	.	.	.	.	.	.	.	.	.	.	.	.	.	.	.	.
.	.	32F#X/JJJ	.	.	.	.	.	.	.	.	.	.	.	.	.	.	.	.
!!LO:LB:g=original	!	!	!	!	!	!	!	!	!	!	!	!	!	!	!	!	!	!
=43	=43	=43	=43	=43	=43	=43	=43	=43	=43	=43	=43	=43	=43	=43	=43	=43	=43	=43
*	*	*Xtremolo	*	*	*	*	*	*	*	*	*	*	*	*	*	*	*	*
8GG\	.	32B-X</LLL	.	1ryy	.	1ryy	.	.	.	1ryy	.	.	1ryy	.	.	4cc\	bro-	san-
.	.	32G</	.	.	.	.	.	.	.	.	.	.	.	.	.	.	.	.
.	.	32B-</	.	.	.	.	.	.	.	.	.	.	.	.	.	.	.	.
.	.	32G</	.	.	.	.	.	.	.	.	.	.	.	.	.	.	.	.
8rFF	.	32B-</	.	.	.	.	.	.	.	.	.	.	.	.	.	.	.	.
.	.	32G</	.	.	.	.	.	.	.	.	.	.	.	.	.	.	.	.
.	.	32B-</	.	.	.	.	.	.	.	.	.	.	.	.	.	.	.	.
.	.	32G</JJJ	.	.	.	.	.	.	.	.	.	.	.	.	.	.	.	.
4r	.	8G</ 8B-<	.	.	.	.	.	.	.	.	.	.	.	.	.	4b-X\	-ni,	-gue.
.	.	8r	.	.	.	.	.	.	.	.	.	.	.	.	.	.	.	.
8EE-X\ 8E-X	.	32B-</LLL	.	.	.	.	.	.	.	.	.	.	.	.	.	4r	.	.
.	.	32G</	.	.	.	.	.	.	.	.	.	.	.	.	.	.	.	.
.	.	32B-</	.	.	.	.	.	.	.	.	.	.	.	.	.	.	.	.
.	.	32G</	.	.	.	.	.	.	.	.	.	.	.	.	.	.	.	.
8rFF	.	32B-</	.	.	.	.	.	.	.	.	.	.	.	.	.	.	.	.
.	.	32G</	.	.	.	.	.	.	.	.	.	.	.	.	.	.	.	.
.	.	32B-</	.	.	.	.	.	.	.	.	.	.	.	.	.	.	.	.
.	.	32G</JJJ	.	.	.	.	.	.	.	.	.	.	.	.	.	.	.	.
4r	.	8G</ 8B-<	.	.	.	.	.	.	.	.	.	.	.	.	.	8r	.	.
.	.	8r	.	.	.	.	.	.	.	.	.	.	.	.	.	8b-\	A	Ri-
=44	=44	=44	=44	=44	=44	=44	=44	=44	=44	=44	=44	=44	=44	=44	=44	=44	=44	=44
8CC\ 8C	.	32G</LLL 32A<	.	1ryy	.	1ryy	.	.	.	1ryy	.	.	1ryy	.	.	4.a/	si-	-vol-
.	.	32E-X</	.	.	.	.	.	.	.	.	.	.	.	.	.	.	.	.
.	.	32G</ 32A<	.	.	.	.	.	.	.	.	.	.	.	.	.	.	.	.
.	.	32E-</	.	.	.	.	.	.	.	.	.	.	.	.	.	.	.	.
8rFF	.	32G</ 32A<	.	.	.	.	.	.	.	.	.	.	.	.	.	.	.	.
.	.	32E-</	.	.	.	.	.	.	.	.	.	.	.	.	.	.	.	.
.	.	32G</ 32A<	.	.	.	.	.	.	.	.	.	.	.	.	.	.	.	.
.	.	32E-</JJJ	.	.	.	.	.	.	.	.	.	.	.	.	.	.	.	.
4r	.	8E-</ 8G< 8A<	.	.	.	.	.	.	.	.	.	.	.	.	.	.	.	.
.	.	8r	.	.	.	.	.	.	.	.	.	.	.	.	.	8a/	-łę	-ge
2r	.	2r	.	.	.	.	.	.	.	.	.	.	.	.	.	(8.gg\L	da	rem
.	.	.	.	.	.	.	.	.	.	.	.	.	.	.	.	16ffn\Jk	.	.
.	.	.	.	.	.	.	.	.	.	.	.	.	.	.	.	16ee-X\LL	.	no-
.	.	.	.	.	.	.	.	.	.	.	.	.	.	.	.	16dd\JJ)	.	.
.	.	.	.	.	.	.	.	.	.	.	.	.	.	.	.	16cc\LL	mnie	-stre
.	.	.	.	.	.	.	.	.	.	.	.	.	.	.	.	16b-X\JJ	.	.
!!LO:LB:g=original	!	!	!	!	!	!	!	!	!	!	!	!	!	!	!	!	!	!
=45	=45	=45	=45	=45	=45	=45	=45	=45	=45	=45	=45	=45	=45	=45	=45	=45	=45	=45
8CC/ 8C	.	32c/LLL 32e-X	pp	1ryy	.	1ryy	.	.	.	1ryy	.	.	1ryy	.	.	4b-X/	bie-	vo-
.	.	32G/	.	.	.	.	.	.	.	.	.	.	.	.	.	.	.	.
.	.	32c/ 32e-	.	.	.	.	.	.	.	.	.	.	.	.	.	.	.	.
.	.	32G/	.	.	.	.	.	.	.	.	.	.	.	.	.	.	.	.
8r	.	32c/ 32e-	.	.	.	.	.	.	.	.	.	.	.	.	.	.	.	.
.	.	32G/	.	.	.	.	.	.	.	.	.	.	.	.	.	.	.	.
.	.	32c/ 32e-	.	.	.	.	.	.	.	.	.	.	.	.	.	.	.	.
.	.	32G/JJJ	.	.	.	.	.	.	.	.	.	.	.	.	.	.	.	.
4r	.	8G/ 8c 8e-	.	.	.	.	.	.	.	.	.	.	.	.	.	4a/	-dnej,	-ci
.	.	8r	.	.	.	.	.	.	.	.	.	.	.	.	.	.	.	.
2r	.	2r	.	.	.	.	.	.	.	.	.	.	.	.	.	8.ffn\L	A-	di
.	.	.	.	.	.	.	.	.	.	.	.	.	.	.	.	16ee-X\Jk	.	.
.	.	.	.	.	.	.	.	.	.	.	.	.	.	.	.	16dd\LL	-bym	pre-
.	.	.	.	.	.	.	.	.	.	.	.	.	.	.	.	16cc\JJ	.	.
.	.	.	.	.	.	.	.	.	.	.	.	.	.	.	.	16b-X/LL	zwró-	-ce al
.	.	.	.	.	.	.	.	.	.	.	.	.	.	.	.	16a/JJ	.	.
=46	=46	=46	=46	=46	=46	=46	=46	=46	=46	=46	=46	=46	=46	=46	=46	=46	=46	=46
8DD/ 8D	.	8G/ 8B-X 8d	.	1ryy	.	1ryy	.	.	.	1ryy	.	.	1ryy	.	.	16g/LL	-ci-	ciel,
.	.	.	.	.	.	.	.	.	.	.	.	.	.	.	.	16d/JJ	.	.
!	!	!	!	!	!	!	!	!	!	!	!	!	!	!	!	!LO:TX:a:i:t=rallent.	!	!
8r	.	8r	.	.	.	.	.	.	.	.	.	.	.	.	.	16c#X/	-ła	quan-
.	.	.	.	.	.	.	.	.	.	.	.	.	.	.	.	16d/	coś	-do il
4r	.	4r	.	.	.	.	.	.	.	.	.	.	.	.	.	16e-X/LL	stra-	di
.	.	.	.	.	.	.	.	.	.	.	.	.	.	.	.	16d/JJ	.	.
.	.	.	.	.	.	.	.	.	.	.	.	.	.	.	.	16f#X/	-cił	ca-
.	.	.	.	.	.	.	.	.	.	.	.	.	.	.	.	16g/	prze-	-de e
4r	.	4r	.	.	.	.	.	.	.	.	.	.	.	.	.	(4.b-X;\	-ze	lan
4DD;/ 4D	.	4d;/ 4f#	.	.	.	.	.	.	.	.	.	.	.	.	.	.	.	.
.	.	.	.	.	.	.	.	.	.	.	.	.	.	.	.	8a/)	.	.
!!LO:PB:g=original	!	!	!	!	!	!	!	!	!	!	!	!	!	!	!	!	!	!
=47	=47	=47	=47	=47	=47	=47	=47	=47	=47	=47	=47	=47	=47	=47	=47	=47	=47	=47
8GG/	.	8B-X/ 8g	p	1ryy	.	1ryy	.	.	.	1ryy	.	.	1ryy	.	.	4g/	mnie!	gue.
*Xtremolo	*	*	*	*	*	*	*	*	*	*	*	*	*	*	*	*	*	*
!LO:TX:b:t=Q.pizz.	!	!	!	!	!	!	!	!	!	!	!	!	!	!	!	!	!	!
8G\L 8B-X 8d	.	8r	.	.	.	.	.	.	.	.	.	.	.	.	.	.	.	.
8G\ 8B- 8d	.	4r	.	.	.	.	.	.	.	.	.	.	.	.	.	4r	.	.
8G\J 8B- 8d	.	.	.	.	.	.	.	.	.	.	.	.	.	.	.	.	.	.
*tremolo	*	*	*	*	*	*	*	*	*	*	*	*	*	*	*	*	*	*
8G\L 8B- 8d	.	8r	.	.	.	.	.	.	.	.	.	.	.	.	.	2r	.	.
!	!	!LO:TX:b:t=Cl.	!	!	!	!	!	!	!	!	!	!	!	!	!	!	!	!
!	!	!LO:TX:a:t=Ob.	!	!	!	!	!	!	!	!	!	!	!	!	!	!	!	!
8G\ 8B- 8d	.	(8g'\L 8gg	.	.	.	.	.	.	.	.	.	.	.	.	.	.	.	.
8G\ 8B- 8d	.	8f#'\ 8ff#	.	.	.	.	.	.	.	.	.	.	.	.	.	.	.	.
8G\J 8B- 8d	.	8g'\J) 8gg	.	.	.	.	.	.	.	.	.	.	.	.	.	.	.	.
=48	=48	=48	=48	=48	=48	=48	=48	=48	=48	=48	=48	=48	=48	=48	=48	=48	=48	=48
8G\L 8B-X 8fn	.	((2dd^\ 2ddd	.	1ryy	.	1ryy	.	.	.	1ryy	.	.	1ryy	.	.	1r	.	.
8G\ 8B- 8f	.	.	.	.	.	.	.	.	.	.	.	.	.	.	.	.	.	.
8G\ 8B- 8f	.	.	.	.	.	.	.	.	.	.	.	.	.	.	.	.	.	.
8G\J 8B- 8f	.	.	.	.	.	.	.	.	.	.	.	.	.	.	.	.	.	.
8G\L 8B- 8e	.	8cc#X\)) 8ccc#X	.	.	.	.	.	.	.	.	.	.	.	.	.	.	.	.
8G\ 8B- 8e	.	(8g'\L 8gg	.	.	.	.	.	.	.	.	.	.	.	.	.	.	.	.
8G\ 8B- 8e	.	8f#'\ 8ff#	.	.	.	.	.	.	.	.	.	.	.	.	.	.	.	.
8G\J 8B- 8e	.	8g'\J) 8gg	.	.	.	.	.	.	.	.	.	.	.	.	.	.	.	.
=49	=49	=49	=49	=49	=49	=49	=49	=49	=49	=49	=49	=49	=49	=49	=49	=49	=49	=49
8G\L 8B-X 8d	.	((2b-X^<\ 2bb-X	.	1ryy	.	1ryy	.	.	.	1ryy	.	.	1ryy	.	.	2r	.	.
8G\ 8B- 8d	.	.	.	.	.	.	.	.	.	.	.	.	.	.	.	.	.	.
8G\ 8B- 8d	.	.	.	.	.	.	.	.	.	.	.	.	.	.	.	.	.	.
8G\J 8B- 8d	.	.	.	.	.	.	.	.	.	.	.	.	.	.	.	.	.	.
8G\L 8A 8c#X 8e	.	8a\)) 8aa	.	.	.	.	.	.	.	.	.	.	.	.	.	8r	.	.
8G\ 8A 8c# 8e	.	8r	.	.	.	.	.	.	.	.	.	.	.	.	.	8a/	Choć	Del
8G\ 8A 8c# 8e	.	4r	.	.	.	.	.	.	.	.	.	.	.	.	.	8g#X/	wszy-	tuo
8G\J 8A 8c# 8e	.	.	.	.	.	.	.	.	.	.	.	.	.	.	.	8a/	-stko	te-
=50	=50	=50	=50	=50	=50	=50	=50	=50	=50	=50	=50	=50	=50	=50	=50	=50	=50	=50
8G\L 8A 8cn 8d	.	1r	.	1ryy	.	1ryy	.	.	.	1ryy	.	.	1ryy	.	.	4ee\	dro-	-sor,
8G\ 8A 8c 8d	.	.	.	.	.	.	.	.	.	.	.	.	.	.	.	.	.	.
8G\ 8A 8c 8d	.	.	.	.	.	.	.	.	.	.	.	.	.	.	.	8.dd\	-gie	pa-
8G\J 8A 8c 8d	.	.	.	.	.	.	.	.	.	.	.	.	.	.	.	.	.	.
.	.	.	.	.	.	.	.	.	.	.	.	.	.	.	.	16a/	stra-	-dres,
8G\L 8A 8c 8d	.	.	.	.	.	.	.	.	.	.	.	.	.	.	.	4cc\	-ci-	fo-
8G\ 8A 8c 8d	.	.	.	.	.	.	.	.	.	.	.	.	.	.	.	.	.	.
.	.	.	.	.	.	.	.	.	.	.	.	.	.	.	.	16qqdd/LL	.	.
.	.	.	.	.	.	.	.	.	.	.	.	.	.	.	.	16qqcc/JJ	.	.
8G\ 8A 8c 8d	.	.	.	.	.	.	.	.	.	.	.	.	.	.	.	8b\	-łeś	-sti
8G\J 8A 8c 8d	.	.	.	.	.	.	.	.	.	.	.	.	.	.	.	8a/	na	pri
!!LO:LB:g=original	!	!	!	!	!	!	!	!	!	!	!	!	!	!	!	!	!	!
=51	=51	=51	=51	=51	=51	=51	=51	=51	=51	=51	=51	=51	=51	=51	=51	=51	=51	=51
8G\L 8Bn 8d	.	((4ee\ 4eee	.	1ryy	.	1ryy	.	.	.	1ryy	.	.	1ryy	.	.	2g/	swie-	va-
8G\ 8B 8d	.	.	.	.	.	.	.	.	.	.	.	.	.	.	.	.	.	.
8G\ 8B 8d	.	8.dd\L)) 8.ddd	.	.	.	.	.	.	.	.	.	.	.	.	.	.	.	.
8G\J 8B 8d	.	.	.	.	.	.	.	.	.	.	.	.	.	.	.	.	.	.
.	.	16cc\Jk 16ccc	.	.	.	.	.	.	.	.	.	.	.	.	.	.	.	.
8G\L 8B 8d	.	((4b\ 4bb	.	.	.	.	.	.	.	.	.	.	.	.	.	16g/	-cie,	-to.
.	.	.	.	.	.	.	.	.	.	.	.	.	.	.	.	16r	.	.
8G\ 8B 8d	.	.	.	.	.	.	.	.	.	.	.	.	.	.	.	8b/	Ach	Ma an-
8G\ 8B 8d	.	8.a\L)) 8.aa	.	.	.	.	.	.	.	.	.	.	.	.	.	8a/	jesz-	-cor
8G\J 8B 8d	.	.	.	.	.	.	.	.	.	.	.	.	.	.	.	8b/	-cze	a
.	.	16g\Jk 16gg	.	.	.	.	.	.	.	.	.	.	.	.	.	.	.	.
=52	=52	=52	=52	=52	=52	=52	=52	=52	=52	=52	=52	=52	=52	=52	=52	=52	=52	=52
*	*	*^	*	*	*	*	*	*	*	*	*	*	*	*	*	*	*	*
8G^\L 8A 8c 8d	.	(4ff#/	2f#\	.	1ryy	.	1ryy	.	.	.	1ryy	.	.	1ryy	.	.	4dd\	je-	te
8G\ 8A 8c 8d	.	.	.	.	.	.	.	.	.	.	.	.	.	.	.	.	.	.	.
8G\ 8A 8c 8d	.	8.ee/L	.	.	.	.	.	.	.	.	.	.	.	.	.	.	8.cc\	-dno	u-
8G\J 8A 8c 8d	.	.	.	.	.	.	.	.	.	.	.	.	.	.	.	.	.	.	.
.	.	16dd/Jk)	.	.	.	.	.	.	.	.	.	.	.	.	.	.	16a/	zo-	-na
8G^\L 8A 8c 8d	.	4ff#\	2ryy	.	.	.	.	.	.	.	.	.	.	.	.	.	4dd\	-sta-	fi-
8G\ 8A 8c 8d	.	.	.	.	.	.	.	.	.	.	.	.	.	.	.	.	.	.	.
8G\ 8A 8c 8d	.	8.ee\L	.	.	.	.	.	.	.	.	.	.	.	.	.	.	8.cc\	-ło	-glia
8G\J 8A 8c 8d	.	.	.	.	.	.	.	.	.	.	.	.	.	.	.	.	.	.	.
.	.	16cc\Jk	.	.	.	.	.	.	.	.	.	.	.	.	.	.	16a/	ci	dieil
*	*	*v	*v	*	*	*	*	*	*	*	*	*	*	*	*	*	*	*	*
=53	=53	=53	=53	=53	=53	=53	=53	=53	=53	=53	=53	=53	=53	=53	=53	=53	=53	=53
*	*	*	*	*	*	*	*	*	*	*	*	*	*	*	*	*^	*	*
!	!	!	!	!	!	!	!	!	!	!	!	!	!LO:TX:a:t=albo	!	!	!	!	!	!
!	!	!	!	!	!	!	!	!	!	!	!	!	!LO:TX:a:i:t=noppure	!	!	!	!	!	!
8GG^>/ 8D	.	8c/ 8f# 8a	.	1ryy	.	1ryy	.	.	.	1ryy	.	.	4f#/	dzie-	fa-	8.f#/L	8.f#\	dzie-	fa-
8r	.	8r	.	.	.	.	.	.	.	.	.	.	.	.	.	.	.	.	.
.	.	.	.	.	.	.	.	.	.	.	.	.	.	.	.	16g/Jk	16g\	.	-to
4r	.	4r	.	.	.	.	.	.	.	.	.	.	8f#/	-cię,	-to!	16a/LL	16a\	-cię	che
.	.	.	.	.	.	.	.	.	.	.	.	.	.	.	.	16b/JJ	16b\	.	tua
.	.	.	.	.	.	.	.	.	.	.	.	.	8r	.	.	16cc\LL	8ryy	Co	sor
.	.	.	.	.	.	.	.	.	.	.	.	.	.	.	.	16cc#X\JJ	.	.	.
!!LO:LB:g=original	!	!	!	!	!	!	!	!	!	!	!	!	!	!	!	!	!	!	!
2r;	.	2r;	.	.	.	.	.	.	.	.	.	.	8f#/L	Ach	Ah	16dd\	2ryy	twe	te
.	.	.	.	.	.	.	.	.	.	.	.	.	.	.	.	16dd#X\	.	po-	di-
.	.	.	.	.	.	.	.	.	.	.	.	.	8g/	.	.	[8ff#;\	.	-dzie-	-vi-
.	.	.	.	.	.	.	.	.	.	.	.	.	8a/	.	.	16ff#\LL]	.	.	.
.	.	.	.	.	.	.	.	.	.	.	.	.	.	.	.	16ee\	.	.	.
.	.	.	.	.	.	.	.	.	.	.	.	.	8b/	.	.	16ccn\JJ	.	.	.
.	.	.	.	.	.	.	.	.	.	.	.	.	.	.	.	16a/	.	-li	-de-
*	*	*	*	*	*	*	*	*	*	*	*	*	*	*	*	*v	*v	*	*
=54	=54	=54	=54	=54	=54	=54	=54	=54	=54	=54	=54	=54	=54	=54	=54	=54	=54	=54
1ryy	.	1ryy	.	1ryy	.	1ryy	.	.	.	1ryy	.	.	8cc/	.	.	1ryy	.	.
.	.	.	.	.	.	.	.	.	.	.	.	.	8cc#X/	.	.	.	.	.
.	.	.	.	.	.	.	.	.	.	.	.	.	8dd/	.	.	.	.	.
.	.	.	.	.	.	.	.	.	.	.	.	.	8ee/J	.	.	.	.	.
.	.	.	.	.	.	.	.	.	.	.	.	.	4ff#\	.	.	.	.	.
.	.	.	.	.	.	.	.	.	.	.	.	.	4gg\	.	.	.	.	.
=55	=55	=55	=55	=55	=55	=55	=55	=55	=55	=55	=55	=55	=55	=55	=55	=55	=55	=55
1ryy	.	1ryy	.	1ryy	.	1ryy	.	.	.	1ryy	.	.	4aa\	.	.	1ryy	.	.
.	.	.	.	.	.	.	.	.	.	.	.	.	4bb\	.	.	.	.	.
.	.	.	.	.	.	.	.	.	.	.	.	.	[2cccn\	.	.	.	.	.
=56	=56	=56	=56	=56	=56	=56	=56	=56	=56	=56	=56	=56	=56	=56	=56	=56	=56	=56
1ryy	.	1ryy	.	1ryy	.	1ryy	.	.	.	1ryy	.	.	8ccc\L]	.	.	1ryy	.	.
.	.	.	.	.	.	.	.	.	.	.	.	.	8aa\	.	.	.	.	.
.	.	.	.	.	.	.	.	.	.	.	.	.	8ff#\	.	.	.	.	.
.	.	.	.	.	.	.	.	.	.	.	.	.	8dd\J	.	.	.	.	.
.	.	.	.	.	.	.	.	.	.	.	.	.	8ee-X\L	.	.	.	.	.
.	.	.	.	.	.	.	.	.	.	.	.	.	8cc\	.	.	.	.	.
.	.	.	.	.	.	.	.	.	.	.	.	.	8a\	.	.	.	.	.
.	.	.	.	.	.	.	.	.	.	.	.	.	8g\J	.	.	.	.	.
=57	=57	=57	=57	=57	=57	=57	=57	=57	=57	=57	=57	=57	=57	=57	=57	=57	=57	=57
1ryy	.	1ryy	.	1ryy	.	1ryy	.	.	.	1ryy	.	.	4f#/	pójdź!	vien	1ryy	.	.
.	.	.	.	.	.	.	.	.	.	.	.	.	4r	.	.	.	.	.
.	.	.	.	.	.	.	.	.	.	.	.	.	8r	.	.	.	.	.
.	.	.	.	.	.	.	.	.	.	.	.	.	8d/	mój	po-	.	.	.
.	.	.	.	.	.	.	.	.	.	.	.	.	8f#/	dro-	-ve-	.	.	.
.	.	.	.	.	.	.	.	.	.	.	.	.	8a/	-gi	-ro	.	.	.
=58	=58	=58	=58	=58	=58	=58	=58	=58	=58	=58	=58	=58	=58	=58	=58	=58	=58	=58
1ryy	.	1ryy	.	1ryy	.	1ryy	.	.	.	1ryy	.	.	2cc\	oj-	ve-	1ryy	.	.
.	.	.	.	.	.	.	.	.	.	.	.	.	8a/	-cze,	-glio,	.	.	.
.	.	.	.	.	.	.	.	.	.	.	.	.	8f#/	mój	pa-	.	.	.
.	.	.	.	.	.	.	.	.	.	.	.	.	8a/	dro-	-dre	.	.	.
.	.	.	.	.	.	.	.	.	.	.	.	.	8cc\	-gi	a-	.	.	.
=59	=59	=59	=59	=59	=59	=59	=59	=59	=59	=59	=59	=59	=59	=59	=59	=59	=59	=59
1ryy	.	1ryy	.	1ryy	.	1ryy	.	.	.	1ryy	.	.	2een\	oj-	-ma-	1ryy	.	.
.	.	.	.	.	.	.	.	.	.	.	.	.	8dd\	-cze	-to,	.	.	.
.	.	.	.	.	.	.	.	.	.	.	.	.	8a/	pój-	la	.	.	.
.	.	.	.	.	.	.	.	.	.	.	.	.	8dd\	-dziem	tu-	.	.	.
.	.	.	.	.	.	.	.	.	.	.	.	.	8ff#\	da-	-a	.	.	.
=60	=60	=60	=60	=60	=60	=60	=60	=60	=60	=60	=60	=60	=60	=60	=60	=60	=60	=60
1ryy	.	1ryy	.	1ryy	.	1ryy	.	.	.	1ryy	.	.	4.aa;\	-le-	sor-	1ryy	.	.
.	.	.	.	.	.	.	.	.	.	.	.	.	8ff#\	.	.	.	.	.
.	.	.	.	.	.	.	.	.	.	.	.	.	8dd\L	.	.	.	.	.
.	.	.	.	.	.	.	.	.	.	.	.	.	8dd#X\	.	.	.	.	.
.	.	.	.	.	.	.	.	.	.	.	.	.	8ee\	.	-te	.	.	.
.	.	.	.	.	.	.	.	.	.	.	.	.	8g#X\J	.	.	.	.	.
=61	=61	=61	=61	=61	=61	=61	=61	=61	=61	=61	=61	=61	=61	=61	=61	=61	=61	=61
1ryy	.	1ryy	.	1ryy	.	1ryy	.	.	.	1ryy	.	.	8a/L	.	di-	1ryy	.	.
.	.	.	.	.	.	.	.	.	.	.	.	.	8b/J	.	.	.	.	.
.	.	.	.	.	.	.	.	.	.	.	.	.	2ddn\	.	-vi-	.	.	.
.	.	.	.	.	.	.	.	.	.	.	.	.	8cc#X\L	-ko	-de	.	.	.
.	.	.	.	.	.	.	.	.	.	.	.	.	8dd\J	.	.	.	.	.
!!LO:LB:g=original	!	!	!	!	!	!	!	!	!	!	!	!	!	!	!	!	!	!
=62	=62	=62	=62	=62	=62	=62	=62	=62	=62	=62	=62	=62	=62	=62	=62	=62	=62	=62
2.GG/ 2.D	.	8B/ 8g	p	1ryy	.	1ryy	.	.	.	1ryy	.	.	2gg\	tam!	ro!	4g/	łzy!	-ra!
.	.	8B/L	.	.	.	.	.	.	.	.	.	.	.	.	.	.	.	.
.	.	(8d/	.	.	.	.	.	.	.	.	.	.	.	.	.	4r	.	.
.	.	8g/J	.	.	.	.	.	.	.	.	.	.	.	.	.	.	.	.
.	.	8b\L	.	.	.	.	.	.	.	.	.	.	2r	.	.	2r	.	.
.	.	[<8dd\	.	.	.	.	.	.	.	.	.	.	.	.	.	.	.	.
4G\	.	8.dd\] 8.gg 8.bb	.	.	.	.	.	.	.	.	.	.	.	.	.	.	.	.
.	.	16cc\Jk) 16ee-X 16aa	.	.	.	.	.	.	.	.	.	.	.	.	.	.	.	.
=63	=63	=63	=63	=63	=63	=63	=63	=63	=63	=63	=63	=63	=63	=63	=63	=63	=63	=63
8GG/	.	2b\ 2dd 2gg	.	1ryy	.	1ryy	.	.	.	1ryy	.	.	1r	.	.	1r	.	.
(8d\L	.	.	.	.	.	.	.	.	.	.	.	.	.	.	.	.	.	.
8B\	.	.	.	.	.	.	.	.	.	.	.	.	.	.	.	.	.	.
8g\J	.	.	.	.	.	.	.	.	.	.	.	.	.	.	.	.	.	.
8en\L	.	4.g/ 4.b	.	.	.	.	.	.	.	.	.	.	.	.	.	.	.	.
8d\	.	.	.	.	.	.	.	.	.	.	.	.	.	.	.	.	.	.
8B\	.	.	.	.	.	.	.	.	.	.	.	.	.	.	.	.	.	.
8G\J)	.	8g/	.	.	.	.	.	.	.	.	.	.	.	.	.	.	.	.
=64	=64	=64	=64	=64	=64	=64	=64	=64	=64	=64	=64	=64	=64	=64	=64	=64	=64	=64
2GG/ 2D	.	2B/ 2d	.	1ryy	.	1ryy	.	.	.	1ryy	.	.	1r	.	.	1r	.	.
(4GG'/ 4D	.	(4B'/ 4d	.	.	.	.	.	.	.	.	.	.	.	.	.	.	.	.
4GG'/) 4D	.	4B'/) 4d	.	.	.	.	.	.	.	.	.	.	.	.	.	.	.	.
=65	=65	=65	=65	=65	=65	=65	=65	=65	=65	=65	=65	=65	=65	=65	=65	=65	=65	=65
1GG;< 1D	.	1B; 1g	.	1ryy	.	1ryy	.	.	.	1ryy	.	.	1r;	.	.	1r;	.	.
==	==	==	==	==	==	==	==	==	==	==	==	==	==	==	==	==	==	==
*-	*-	*-	*-	*-	*-	*-	*-	*-	*-	*-	*-	*-	*-	*-	*-	*-	*-	*-
!!!system-decoration: s1,s2,s3[(s4,s5)]{(s6,s7)}
!!!RDF**kern: > = above
!!!RDF**kern: < = below
!!!ENC: Andrzej Gręziak
!!!END: 2022-09-06
!!!ENC: Jan Barakat
!!!END: 2022-10-17
